; generated by Slic3r 1.2.9 on 2019-04-02 at 17:20:04

; external perimeters extrusion width = 0.40mm
; perimeters extrusion width = 0.48mm
; infill extrusion width = 0.48mm
; solid infill extrusion width = 0.48mm
; top infill extrusion width = 0.48mm

M107
M190 S65 ; set bed temperature
M104 S200 ; set temperature
G28 ; home all axes
G1 Z5 F5000 ; lift nozzle

M109 S200 ; wait for temperature to be reached
G21 ; set units to millimeters
G90 ; use absolute coordinates
M82 ; use absolute distances for extrusion
G92 E0
G1 Z0.350 F7800.000
G1 E-2.00000 F2400.00000
G92 E0
G1 X82.452 Y82.452 F7800.000
G1 E2.00000 F2400.00000
G1 X83.160 Y81.763 E2.03179 F1800.000
G1 X84.338 Y80.742 E2.08196
G1 X85.578 Y79.797 E2.13214
G1 X86.524 Y79.154 E2.16893
G1 X86.876 Y78.931 E2.18233
G1 X88.224 Y78.148 E2.23250
G1 X89.243 Y77.629 E2.26930
G1 X90.669 Y76.998 E2.31949
G1 X92.132 Y76.458 E2.36966
G1 X93.625 Y76.010 E2.41983
G1 X94.029 Y75.906 E2.43323
G1 X95.553 Y75.579 E2.48340
G1 X96.682 Y75.400 E2.52019
G1 X98.234 Y75.240 E2.57038
G1 X99.792 Y75.178 E2.62056
G1 X100.241 Y75.179 E2.63502
G1 X101.766 Y75.240 E2.68412 F1800.000
G1 X102.905 Y75.348 E2.72092
G1 X103.318 Y75.400 E2.73432
G1 X104.855 Y75.657 E2.78449
G1 X106.406 Y76.019 E2.83574
G1 X107.868 Y76.458 E2.88485
G1 X108.944 Y76.845 E2.92165
G1 X110.380 Y77.452 E2.97181
G1 X110.757 Y77.629 E2.98522
G1 X112.140 Y78.349 E3.03539
G1 X113.124 Y78.931 E3.07219
G1 X114.422 Y79.797 E3.12237
G1 X114.785 Y80.062 E3.13684
G1 X115.982 Y81.007 E3.18593
G1 X116.840 Y81.763 E3.22272
G1 X117.952 Y82.857 E3.27291
G1 X118.993 Y84.018 E3.32310
G1 X119.959 Y85.242 E3.37326
G1 X120.203 Y85.578 E3.38665
G1 X120.846 Y86.524 E3.42345
G1 X121.651 Y87.860 E3.47364
G1 X122.356 Y89.213 E3.52274
G1 X122.548 Y89.620 E3.53722
G1 X123.002 Y90.670 E3.57402
G1 X123.531 Y92.100 E3.62310
G1 X123.990 Y93.625 E3.67435
G1 X124.094 Y94.029 E3.68775
G1 X124.421 Y95.553 E3.73792
G1 X124.652 Y97.095 E3.78810
G1 X124.760 Y98.234 E3.82490
G1 X124.822 Y99.792 E3.87508
G1 X124.786 Y101.351 E3.92525
G1 X124.760 Y101.766 E3.93865
G1 X124.600 Y103.318 E3.98883
G1 X124.421 Y104.447 E4.02563
G1 X124.101 Y105.939 E4.07473
G1 X123.671 Y107.472 E4.12598
G1 X123.542 Y107.868 E4.13937
G1 X123.002 Y109.331 E4.18954
G1 X122.371 Y110.757 E4.23973
G1 X121.852 Y111.776 E4.27652
G1 X121.069 Y113.124 E4.32670
G1 X120.846 Y113.476 E4.34010
G1 X119.959 Y114.758 E4.39028
G1 X119.258 Y115.662 E4.42707
G1 X118.237 Y116.840 E4.47723
G1 X117.952 Y117.143 E4.49064
G1 X116.840 Y118.237 E4.54082
G1 X115.982 Y118.993 E4.57761
G1 X114.758 Y119.959 E4.62778
G1 X113.476 Y120.846 E4.67796
G1 X113.124 Y121.069 E4.69136
G1 X111.776 Y121.852 E4.74153
G1 X110.757 Y122.371 E4.77833
G1 X109.331 Y123.002 E4.82852
G1 X107.868 Y123.542 E4.87869
G1 X107.472 Y123.671 E4.89208
G1 X105.939 Y124.101 E4.94333
G1 X104.447 Y124.421 E4.99243
G1 X103.318 Y124.600 E5.02922
G1 X102.872 Y124.655 E5.04368
G1 X101.351 Y124.786 E5.09280
G1 X100.208 Y124.822 E5.12960
G1 X98.649 Y124.786 E5.17977
G1 X98.234 Y124.760 E5.19317
G1 X96.683 Y124.600 E5.24334
G1 X95.553 Y124.421 E5.28014
G1 X94.029 Y124.094 E5.33031
G1 X92.528 Y123.671 E5.38050
G1 X92.132 Y123.542 E5.39389
G1 X90.670 Y123.002 E5.44404
G1 X89.243 Y122.371 E5.49425
G1 X88.224 Y121.852 E5.53104
G1 X86.876 Y121.069 E5.58121
G1 X86.524 Y120.846 E5.59462
G1 X85.242 Y119.959 E5.64480
G1 X84.018 Y118.993 E5.69495
G1 X83.160 Y118.237 E5.73175
G1 X82.048 Y117.143 E5.78194
G1 X81.763 Y116.840 E5.79534
G1 X80.742 Y115.662 E5.84550
G1 X80.041 Y114.758 E5.88230
G1 X79.154 Y113.476 E5.93248
G1 X78.349 Y112.140 E5.98267
G1 X77.644 Y110.787 E6.03177
G1 X77.452 Y110.380 E6.04625
G1 X76.845 Y108.944 E6.09641
G1 X76.458 Y107.868 E6.13321
G1 X76.019 Y106.407 E6.18231
G1 X75.906 Y105.971 E6.19678
G1 X75.657 Y104.855 E6.23358
G1 X75.400 Y103.318 E6.28374
G1 X75.240 Y101.766 E6.33394
G1 X75.179 Y100.241 E6.38304
G1 X75.178 Y99.792 E6.39750
G1 X75.214 Y98.649 E6.43429
G1 X75.348 Y97.095 E6.48447
G1 X75.579 Y95.553 E6.53466
G1 X75.906 Y94.029 E6.58483
G1 X76.010 Y93.625 E6.59823
G1 X76.458 Y92.132 E6.64840
G1 X76.845 Y91.056 E6.68520
G1 X77.439 Y89.651 E6.73429
G1 X77.629 Y89.243 E6.74877
G1 X78.148 Y88.224 E6.78556
G1 X78.931 Y86.876 E6.83573
G1 X79.797 Y85.578 E6.88592
G1 X80.041 Y85.242 E6.89932
G1 X81.007 Y84.018 E6.94948
G1 X81.763 Y83.160 E6.98627
G1 X82.410 Y82.495 E7.01613
G1 E5.01613 F2400.00000
G92 E0
G1 X113.600 Y102.230 F7800.000
G1 E2.00000 F2400.00000
G1 X86.400 Y102.230 E2.87525 F1800.000
G1 X86.400 Y97.770 E3.01876
G1 X113.600 Y97.770 E3.89401
G1 X113.600 Y102.170 E4.03558
G1 X112.975 Y101.605 F7800.000
G1 X87.025 Y101.605 E4.87062 F1800.000
G1 X87.025 Y98.395 E4.97391
G1 X112.975 Y98.395 E5.80895
G1 X112.975 Y101.545 E5.91030
G1 X112.350 Y100.980 F7800.000
G1 X87.650 Y100.980 E6.70512 F1800.000
G1 X87.650 Y99.020 E6.76819
G1 X112.350 Y99.020 E7.56301
G1 X112.350 Y100.920 E7.62415
G1 X112.350 Y101.380 F7800.000
G1 X116.535 Y101.376 F7800.000
G1 X116.472 Y102.049 E7.64591 F1800.000
G1 X116.305 Y103.112 E7.68054
G1 X116.078 Y104.128 E7.71405
G1 X115.787 Y105.129 E7.74760
G1 X115.434 Y106.111 E7.78116
G1 X115.020 Y107.068 E7.81472
G1 X114.546 Y107.997 E7.84827
G1 X114.015 Y108.894 E7.88183
G1 X113.429 Y109.757 E7.91538
G1 X112.790 Y110.581 E7.94894
G1 X112.100 Y111.363 E7.98250
G1 X111.363 Y112.100 E8.01605
G1 X110.581 Y112.790 E8.04961
G1 X109.757 Y113.429 E8.08317
G1 X108.894 Y114.015 E8.11672
G1 X107.997 Y114.546 E8.15028
G1 X107.068 Y115.020 E8.18383
G1 X106.111 Y115.434 E8.21739
G1 X105.131 Y115.786 E8.25090
G1 X104.097 Y116.085 E8.28553
G1 X103.110 Y116.305 E8.31806
G1 X102.080 Y116.469 E8.35161
G1 X101.042 Y116.567 E8.38517
G1 X100.000 Y116.599 E8.41873
G1 X98.958 Y116.567 E8.45228
G1 X97.920 Y116.469 E8.48584
G1 X96.890 Y116.305 E8.51939
G1 X95.872 Y116.078 E8.55295
G1 X94.870 Y115.787 E8.58651
G1 X93.889 Y115.434 E8.62007
G1 X92.932 Y115.020 E8.65362
G1 X92.003 Y114.546 E8.68718
G1 X91.106 Y114.015 E8.72073
G1 X90.243 Y113.429 E8.75429
G1 X89.419 Y112.790 E8.78785
G1 X88.637 Y112.100 E8.82140
G1 X87.900 Y111.363 E8.85495
G1 X87.210 Y110.581 E8.88851
G1 X86.571 Y109.757 E8.92207
G1 X85.985 Y108.894 E8.95563
G1 X85.454 Y107.997 E8.98918
G1 X84.980 Y107.068 E9.02274
G1 X84.566 Y106.111 E9.05629
G1 X84.224 Y105.160 E9.08882
G1 X83.922 Y104.127 E9.12345
G1 X83.695 Y103.110 E9.15696
G1 X83.531 Y102.080 E9.19052
G1 X83.433 Y101.042 E9.22407
G1 X83.401 Y100.000 E9.25763
G1 X83.433 Y98.958 E9.29119
G1 X83.531 Y97.920 E9.32474
G1 X83.695 Y96.890 E9.35830
G1 X83.922 Y95.872 E9.39186
G1 X84.213 Y94.871 E9.42541
G1 X84.566 Y93.889 E9.45897
G1 X84.980 Y92.932 E9.49252
G1 X85.454 Y92.003 E9.52608
G1 X85.968 Y91.133 E9.55861
G1 X86.572 Y90.242 E9.59324
G1 X87.210 Y89.419 E9.62675
G1 X87.900 Y88.637 E9.66031
G1 X88.637 Y87.900 E9.69386
G1 X89.419 Y87.210 E9.72742
G1 X90.243 Y86.571 E9.76097
G1 X91.106 Y85.985 E9.79453
G1 X92.003 Y85.454 E9.82809
G1 X92.932 Y84.980 E9.86164
G1 X93.889 Y84.566 E9.89520
G1 X94.871 Y84.213 E9.92875
G1 X95.872 Y83.922 E9.96231
G1 X96.890 Y83.695 E9.99587
G1 X97.920 Y83.531 E10.02942
G1 X98.956 Y83.433 E10.06293
G1 X100.032 Y83.402 E10.09756
G1 X101.042 Y83.433 E10.13009
G1 X102.080 Y83.531 E10.16364 F1800.000
G1 X103.110 Y83.695 E10.19720
G1 X104.128 Y83.922 E10.23076
G1 X105.129 Y84.213 E10.26431
G1 X106.111 Y84.566 E10.29787
G1 X107.068 Y84.980 E10.33143
G1 X107.997 Y85.454 E10.36498
G1 X108.894 Y85.985 E10.39854
G1 X109.757 Y86.571 E10.43210
G1 X110.581 Y87.210 E10.46565
G1 X111.363 Y87.900 E10.49921
G1 X112.100 Y88.637 E10.53276
G1 X112.790 Y89.419 E10.56632
G1 X113.429 Y90.243 E10.59988
G1 X114.015 Y91.106 E10.63343
G1 X114.546 Y92.003 E10.66699
G1 X115.020 Y92.932 E10.70055
G1 X115.434 Y93.889 E10.73410
G1 X115.787 Y94.870 E10.76766
G1 X116.078 Y95.872 E10.80122
G1 X116.305 Y96.890 E10.83477
G1 X116.469 Y97.920 E10.86833
G1 X116.567 Y98.958 E10.90188
G1 X116.599 Y100.000 E10.93544
G1 X116.567 Y101.042 E10.96900
G1 X116.541 Y101.316 E10.97784
G1 X117.157 Y101.434 F7800.000
G1 X117.092 Y102.126 E11.00021 F1800.000
G1 X116.919 Y103.228 E11.03610
G1 X116.683 Y104.284 E11.07089
G1 X116.382 Y105.323 E11.10571
G1 X116.015 Y106.341 E11.14053
G1 X115.585 Y107.334 E11.17535
G1 X115.094 Y108.298 E11.21017
G1 X114.543 Y109.229 E11.24499
G1 X113.935 Y110.124 E11.27981
G1 X113.272 Y110.979 E11.31463
G1 X112.556 Y111.791 E11.34946
G1 X111.791 Y112.556 E11.38427
G1 X110.979 Y113.272 E11.41909
G1 X110.124 Y113.935 E11.45391
G1 X109.229 Y114.543 E11.48873
G1 X108.298 Y115.094 E11.52355
G1 X107.334 Y115.585 E11.55837
G1 X106.341 Y116.015 E11.59319
G1 X105.324 Y116.381 E11.62799
G1 X104.252 Y116.691 E11.66388
G1 X103.228 Y116.920 E11.69765
G1 X102.159 Y117.089 E11.73247
G1 X101.082 Y117.191 E11.76729
G1 X100.000 Y117.225 E11.80211
G1 X98.918 Y117.191 E11.83693
G1 X97.841 Y117.089 E11.87175
G1 X96.772 Y116.920 E11.90657
G1 X95.716 Y116.683 E11.94139
G1 X94.677 Y116.382 E11.97621
G1 X93.659 Y116.015 E12.01104
G1 X92.666 Y115.585 E12.04585
G1 X91.702 Y115.094 E12.08067
G1 X90.771 Y114.543 E12.11549
G1 X89.876 Y113.935 E12.15031
G1 X89.021 Y113.272 E12.18514
G1 X88.209 Y112.556 E12.21996
G1 X87.444 Y111.791 E12.25477
G1 X86.728 Y110.979 E12.28959
G1 X86.065 Y110.124 E12.32442
G1 X85.457 Y109.229 E12.35924
G1 X84.906 Y108.298 E12.39406
G1 X84.415 Y107.334 E12.42888
G1 X83.985 Y106.341 E12.46369
G1 X83.629 Y105.353 E12.49747
G1 X83.316 Y104.283 E12.53336
G1 X83.080 Y103.228 E12.56815
G1 X82.911 Y102.159 E12.60297
G1 X82.809 Y101.082 E12.63779
G1 X82.775 Y100.000 E12.67261
G1 X82.809 Y98.918 E12.70743
G1 X82.911 Y97.841 E12.74225
G1 X83.080 Y96.772 E12.77707
G1 X83.317 Y95.716 E12.81189
G1 X83.618 Y94.677 E12.84671
G1 X83.985 Y93.659 E12.88154
G1 X84.415 Y92.666 E12.91636
G1 X84.906 Y91.702 E12.95117
G1 X85.440 Y90.799 E12.98495
G1 X86.066 Y89.875 E13.02084
G1 X86.728 Y89.021 E13.05563
G1 X87.444 Y88.209 E13.09046
G1 X88.209 Y87.444 E13.12527
G1 X89.021 Y86.728 E13.16009
G1 X89.876 Y86.065 E13.19491
G1 X90.771 Y85.457 E13.22973
G1 X91.702 Y84.906 E13.26455
G1 X92.666 Y84.415 E13.29937
G1 X93.659 Y83.985 E13.33419
G1 X94.677 Y83.618 E13.36901
G1 X95.716 Y83.317 E13.40383
G1 X96.772 Y83.080 E13.43866
G1 X97.841 Y82.911 E13.47348
G1 X98.918 Y82.809 E13.50827
G1 X100.032 Y82.776 E13.54416
G1 X101.082 Y82.809 E13.57793
G1 X102.159 Y82.911 E13.61275 F1800.000
G1 X103.228 Y83.080 E13.64757
G1 X104.284 Y83.317 E13.68239
G1 X105.323 Y83.618 E13.71721
G1 X106.341 Y83.985 E13.75204
G1 X107.334 Y84.415 E13.78685
G1 X108.298 Y84.906 E13.82167
G1 X109.229 Y85.457 E13.85649
G1 X110.124 Y86.065 E13.89131
G1 X110.979 Y86.728 E13.92614
G1 X111.791 Y87.444 E13.96096
G1 X112.556 Y88.209 E13.99577
G1 X113.272 Y89.021 E14.03059
G1 X113.935 Y89.876 E14.06542
G1 X114.543 Y90.771 E14.10024
G1 X115.094 Y91.702 E14.13506
G1 X115.585 Y92.666 E14.16988
G1 X116.015 Y93.659 E14.20469
G1 X116.382 Y94.677 E14.23952
G1 X116.683 Y95.716 E14.27434
G1 X116.920 Y96.772 E14.30916
G1 X117.089 Y97.841 E14.34398
G1 X117.191 Y98.918 E14.37880
G1 X117.225 Y100.000 E14.41362
G1 X117.191 Y101.082 E14.44844
G1 X117.163 Y101.375 E14.45791
G1 X117.779 Y101.493 F7800.000
G1 X117.712 Y102.204 E14.48089 F1800.000
G1 X117.534 Y103.345 E14.51805
G1 X117.289 Y104.439 E14.55412
G1 X116.976 Y105.516 E14.59021
G1 X116.596 Y106.571 E14.62629
G1 X116.151 Y107.600 E14.66238
G1 X115.642 Y108.599 E14.69846
G1 X115.071 Y109.564 E14.73454
G1 X114.441 Y110.492 E14.77063
G1 X113.753 Y111.378 E14.80671
G1 X113.012 Y112.219 E14.84280
G1 X112.219 Y113.012 E14.87888
G1 X111.378 Y113.753 E14.91496
G1 X110.492 Y114.441 E14.95105
G1 X109.564 Y115.071 E14.98713
G1 X108.599 Y115.642 E15.02322
G1 X107.600 Y116.151 E15.05930
G1 X106.571 Y116.596 E15.09538
G1 X105.516 Y116.976 E15.13146
G1 X104.407 Y117.296 E15.16861
G1 X103.345 Y117.534 E15.20363
G1 X102.237 Y117.709 E15.23972
G1 X101.121 Y117.815 E15.27580
G1 X100.000 Y117.850 E15.31189
G1 X98.879 Y117.815 E15.34797
G1 X97.763 Y117.709 E15.38405
G1 X96.655 Y117.534 E15.42014
G1 X95.561 Y117.289 E15.45622
G1 X94.484 Y116.976 E15.49231
G1 X93.429 Y116.596 E15.52839
G1 X92.400 Y116.151 E15.56447
G1 X91.401 Y115.642 E15.60056
G1 X90.436 Y115.071 E15.63664
G1 X89.508 Y114.441 E15.67273
G1 X88.622 Y113.753 E15.70881
G1 X87.781 Y113.012 E15.74490
G1 X86.988 Y112.219 E15.78098
G1 X86.247 Y111.378 E15.81706
G1 X85.559 Y110.492 E15.85315
G1 X84.929 Y109.564 E15.88923
G1 X84.358 Y108.599 E15.92531
G1 X83.849 Y107.600 E15.96140
G1 X83.404 Y106.571 E15.99748
G1 X83.035 Y105.547 E16.03250
G1 X82.711 Y104.439 E16.06966
G1 X82.466 Y103.345 E16.10573
G1 X82.291 Y102.237 E16.14182
G1 X82.185 Y101.121 E16.17790
G1 X82.150 Y100.000 E16.21398
G1 X82.185 Y98.879 E16.25007
G1 X82.291 Y97.763 E16.28615
G1 X82.466 Y96.655 E16.32224
G1 X82.711 Y95.561 E16.35832
G1 X83.024 Y94.484 E16.39440
G1 X83.404 Y93.429 E16.43049
G1 X83.849 Y92.400 E16.46657
G1 X84.358 Y91.401 E16.50266
G1 X84.912 Y90.464 E16.53768
G1 X85.559 Y89.508 E16.57483
G1 X86.247 Y88.622 E16.61091
G1 X86.988 Y87.781 E16.64699
G1 X87.781 Y86.988 E16.68307
G1 X88.622 Y86.247 E16.71916
G1 X89.508 Y85.559 E16.75524
G1 X90.436 Y84.929 E16.79133
G1 X91.401 Y84.358 E16.82741
G1 X92.400 Y83.849 E16.86349
G1 X93.429 Y83.404 E16.89958
G1 X94.484 Y83.024 E16.93566
G1 X95.561 Y82.711 E16.97174
G1 X96.655 Y82.466 E17.00783
G1 X97.763 Y82.291 E17.04391
G1 X98.879 Y82.185 E17.07999
G1 X100.033 Y82.151 E17.11714
G1 X101.121 Y82.185 E17.15216
G1 X102.237 Y82.291 E17.18825 F1800.000
G1 X103.345 Y82.466 E17.22433
G1 X104.439 Y82.711 E17.26042
G1 X105.516 Y83.024 E17.29650
G1 X106.571 Y83.404 E17.33258
G1 X107.600 Y83.849 E17.36867
G1 X108.599 Y84.358 E17.40475
G1 X109.564 Y84.929 E17.44083
G1 X110.492 Y85.559 E17.47692
G1 X111.378 Y86.247 E17.51300
G1 X112.219 Y86.988 E17.54909
G1 X113.012 Y87.781 E17.58517
G1 X113.753 Y88.622 E17.62125
G1 X114.441 Y89.508 E17.65734
G1 X115.071 Y90.436 E17.69342
G1 X115.642 Y91.401 E17.72951
G1 X116.151 Y92.400 E17.76559
G1 X116.596 Y93.429 E17.80167
G1 X116.976 Y94.484 E17.83776
G1 X117.289 Y95.561 E17.87384
G1 X117.534 Y96.655 E17.90993
G1 X117.709 Y97.763 E17.94601
G1 X117.815 Y98.879 E17.98209
G1 X117.850 Y100.000 E18.01818
G1 X117.815 Y101.121 E18.05426
G1 X117.785 Y101.433 E18.06437
G1 X117.416 Y101.660 F7800.000
G1 X113.978 Y101.954 F7800.000
G1 X115.796 Y103.772 E18.14774 F1800.000
G1 X115.953 Y103.038 E18.17208
G1 X113.978 Y101.063 E18.26263
G1 X113.978 Y100.173 E18.29152
G1 X116.073 Y102.268 E18.38760
G1 X116.159 Y101.462 E18.41387
G1 X113.978 Y99.282 E18.51387
G1 X113.978 Y98.391 E18.54276
G1 X116.205 Y100.618 E18.64490
G1 X116.208 Y99.730 E18.67370
G1 X100.270 Y83.792 E19.40473
G1 X101.211 Y83.843 E19.43530
G1 X116.157 Y98.789 E20.12084
G1 X116.041 Y97.782 E20.15372
G1 X102.218 Y83.959 E20.78771
G1 X103.310 Y84.160 E20.82370
G1 X115.840 Y96.690 E21.39842
G1 X115.528 Y95.488 E21.43872
G1 X104.512 Y84.472 E21.94397
G1 X105.879 Y84.948 F7800.000
G1 X115.052 Y94.121 E22.36473 F1800.000
G1 X114.258 Y92.437 F7800.000
G1 X107.563 Y85.742 E22.67181 F1800.000
G1 X110.642 Y87.929 F7800.000
G1 X112.071 Y89.358 E22.73735 F1800.000
G1 X113.742 Y102.608 F7800.000
G1 X115.614 Y104.481 E22.82323 F1800.000
G1 X115.410 Y105.167 E22.84646
G1 X112.851 Y102.608 E22.96384
G1 X111.961 Y102.608 E22.99273
G1 X115.175 Y105.822 E23.14014
G1 X114.917 Y106.456 E23.16232
G1 X111.070 Y102.608 E23.33879
G1 X110.179 Y102.608 E23.36768
G1 X114.644 Y107.073 E23.57244
G1 X114.343 Y107.663 E23.59392
G1 X109.288 Y102.608 E23.82574
G1 X108.398 Y102.608 E23.85463
G1 X114.023 Y108.234 E24.11265
G1 X113.690 Y108.791 E24.13371
G1 X107.507 Y102.608 E24.41730
G1 X106.616 Y102.608 E24.44619
G1 X113.330 Y109.322 E24.75410
G1 X112.955 Y109.838 E24.77478
G1 X105.726 Y102.608 E25.10636
G1 X104.835 Y102.608 E25.13525
G1 X112.566 Y110.339 E25.48984
G1 X112.151 Y110.815 E25.51031
G1 X103.944 Y102.608 E25.88674
G1 X103.054 Y102.608 E25.91562
G1 X111.711 Y111.266 E26.31272
G1 X111.266 Y111.711 E26.33315
G1 X102.163 Y102.608 E26.75067
G1 X101.272 Y102.608 E26.77956
G1 X110.815 Y112.151 E27.21726
G1 X110.339 Y112.566 E27.23774
G1 X100.382 Y102.608 E27.69445
G1 X99.491 Y102.608 E27.72334
G1 X109.838 Y112.955 E28.19791
