; generated by Slic3r 1.2.9 on 2019-04-05 at 15:37:45

; external perimeters extrusion width = 0.40mm
; perimeters extrusion width = 0.48mm
; infill extrusion width = 0.48mm
; solid infill extrusion width = 0.48mm
; top infill extrusion width = 0.48mm

M107
M190 S65 ; set bed temperature
M104 S200 ; set temperature
G28 ; home all axes
G1 Z5 F5000 ; lift nozzle

M109 S200 ; wait for temperature to be reached
G21 ; set units to millimeters
G90 ; use absolute coordinates
M82 ; use absolute distances for extrusion
G92 E0
G1 Z0.350 F7800.000
G1 E-2.00000 F2400.00000
G92 E0
G1 X82.452 Y82.452 F7800.000
G1 E2.00000 F2400.00000
G1 X83.160 Y81.763 E2.03179 F1800.000
G1 X84.338 Y80.742 E2.08196
G1 X85.578 Y79.797 E2.13214
G1 X86.524 Y79.154 E2.16893
G1 X86.876 Y78.931 E2.18233
G1 X88.224 Y78.148 E2.23250
G1 X89.243 Y77.629 E2.26930
G1 X90.669 Y76.998 E2.31949
G1 X92.132 Y76.458 E2.36966
G1 X93.625 Y76.010 E2.41983
G1 X94.029 Y75.906 E2.43323
G1 X95.553 Y75.579 E2.48340
G1 X96.682 Y75.400 E2.52019
G1 X98.234 Y75.240 E2.57038
G1 X99.792 Y75.178 E2.62056
G1 X100.241 Y75.179 E2.63502
G1 X101.766 Y75.240 E2.68412 F1800.000
G1 X102.905 Y75.348 E2.72092
G1 X103.318 Y75.400 E2.73432
G1 X104.855 Y75.657 E2.78449
G1 X106.406 Y76.019 E2.83574
G1 X107.868 Y76.458 E2.88485
G1 X108.944 Y76.845 E2.92165
G1 X110.380 Y77.452 E2.97181
G1 X110.757 Y77.629 E2.98522
G1 X112.140 Y78.349 E3.03539
G1 X113.124 Y78.931 E3.07219
G1 X114.422 Y79.797 E3.12237
G1 X114.785 Y80.062 E3.13684
G1 X115.982 Y81.007 E3.18593
G1 X116.840 Y81.763 E3.22272
G1 X117.952 Y82.857 E3.27291
G1 X118.993 Y84.018 E3.32310
G1 X119.959 Y85.242 E3.37326
G1 X120.203 Y85.578 E3.38665
G1 X120.846 Y86.524 E3.42345
G1 X121.651 Y87.860 E3.47364
G1 X122.356 Y89.213 E3.52274
G1 X122.548 Y89.620 E3.53722
G1 X123.002 Y90.670 E3.57402
G1 X123.531 Y92.100 E3.62310
G1 X123.990 Y93.625 E3.67435
G1 X124.094 Y94.029 E3.68775
G1 X124.421 Y95.553 E3.73792
G1 X124.652 Y97.095 E3.78810
G1 X124.760 Y98.234 E3.82490
G1 X124.822 Y99.792 E3.87508
G1 X124.786 Y101.351 E3.92525
G1 X124.760 Y101.766 E3.93865
G1 X124.600 Y103.318 E3.98883
G1 X124.421 Y104.447 E4.02563
G1 X124.101 Y105.939 E4.07473
G1 X123.671 Y107.472 E4.12598
G1 X123.542 Y107.868 E4.13937
G1 X123.002 Y109.331 E4.18954
G1 X122.371 Y110.757 E4.23973
G1 X121.852 Y111.776 E4.27652
G1 X121.069 Y113.124 E4.32670
G1 X120.846 Y113.476 E4.34010
G1 X119.959 Y114.758 E4.39028
G1 X119.258 Y115.662 E4.42707
G1 X118.237 Y116.840 E4.47723
G1 X117.952 Y117.143 E4.49064
G1 X116.840 Y118.237 E4.54082
G1 X115.982 Y118.993 E4.57761
G1 X114.758 Y119.959 E4.62778
G1 X113.476 Y120.846 E4.67796
G1 X113.124 Y121.069 E4.69136
G1 X111.776 Y121.852 E4.74153
G1 X110.757 Y122.371 E4.77833
G1 X109.331 Y123.002 E4.82852
G1 X107.868 Y123.542 E4.87869
G1 X107.472 Y123.671 E4.89208
G1 X105.939 Y124.101 E4.94333
G1 X104.447 Y124.421 E4.99243
G1 X103.318 Y124.600 E5.02922
G1 X102.872 Y124.655 E5.04368
G1 X101.351 Y124.786 E5.09280
G1 X100.208 Y124.822 E5.12960
G1 X98.649 Y124.786 E5.17977
G1 X98.234 Y124.760 E5.19317
G1 X96.683 Y124.600 E5.24334
G1 X95.553 Y124.421 E5.28014
G1 X94.029 Y124.094 E5.33031
G1 X92.528 Y123.671 E5.38050
G1 X92.132 Y123.542 E5.39389
G1 X90.670 Y123.002 E5.44404
G1 X89.243 Y122.371 E5.49425
G1 X88.224 Y121.852 E5.53104
G1 X86.876 Y121.069 E5.58121
G1 X86.524 Y120.846 E5.59462
G1 X85.242 Y119.959 E5.64480
G1 X84.018 Y118.993 E5.69495
G1 X83.160 Y118.237 E5.73175
G1 X82.048 Y117.143 E5.78194
G1 X81.763 Y116.840 E5.79534
G1 X80.742 Y115.662 E5.84550
G1 X80.041 Y114.758 E5.88230
G1 X79.154 Y113.476 E5.93248
G1 X78.349 Y112.140 E5.98267
G1 X77.644 Y110.787 E6.03177
G1 X77.452 Y110.380 E6.04625
G1 X76.845 Y108.944 E6.09641
G1 X76.458 Y107.868 E6.13321
G1 X76.019 Y106.407 E6.18231
G1 X75.906 Y105.971 E6.19678
G1 X75.657 Y104.855 E6.23358
G1 X75.400 Y103.318 E6.28374
G1 X75.240 Y101.766 E6.33394
G1 X75.179 Y100.241 E6.38304
G1 X75.178 Y99.792 E6.39750
G1 X75.214 Y98.649 E6.43429
G1 X75.348 Y97.095 E6.48447
G1 X75.579 Y95.553 E6.53466
G1 X75.906 Y94.029 E6.58483
G1 X76.010 Y93.625 E6.59823
G1 X76.458 Y92.132 E6.64840
G1 X76.845 Y91.056 E6.68520
G1 X77.439 Y89.651 E6.73429
G1 X77.629 Y89.243 E6.74877
G1 X78.148 Y88.224 E6.78556
G1 X78.931 Y86.876 E6.83573
G1 X79.797 Y85.578 E6.88592
G1 X80.041 Y85.242 E6.89932
G1 X81.007 Y84.018 E6.94948
G1 X81.763 Y83.160 E6.98627
G1 X82.410 Y82.495 E7.01613
G1 E5.01613 F2400.00000
G92 E0
G1 X105.021 Y105.021 F7800.000
G1 E2.00000 F2400.00000
G1 X104.612 Y105.400 E2.01794 F1800.000
G1 X104.174 Y105.745 E2.03588
G1 X103.710 Y106.055 E2.05383
G1 X103.224 Y106.327 E2.07177
G1 X102.717 Y106.560 E2.08971
G1 X102.194 Y106.753 E2.10765
G1 X101.658 Y106.905 E2.12559
G1 X101.111 Y107.014 E2.14354
G1 X100.557 Y107.079 E2.16148
G1 X100.000 Y107.101 E2.17942
G1 X99.443 Y107.079 E2.19736
G1 X98.889 Y107.014 E2.21530
G1 X98.342 Y106.905 E2.23325
G1 X97.806 Y106.753 E2.25119
G1 X97.283 Y106.560 E2.26913
G1 X96.776 Y106.327 E2.28707
G1 X96.290 Y106.055 E2.30501
G1 X95.826 Y105.745 E2.32296
G1 X95.388 Y105.400 E2.34090
G1 X94.979 Y105.021 E2.35884
G1 X94.600 Y104.612 E2.37678
G1 X94.255 Y104.174 E2.39472
G1 X93.945 Y103.710 E2.41267
G1 X93.673 Y103.224 E2.43061
G1 X93.439 Y102.716 E2.44861
G1 X93.243 Y102.180 E2.46695
G1 X93.095 Y101.658 E2.48443
G1 X92.986 Y101.111 E2.50237
G1 X92.921 Y100.557 E2.52032
G1 X92.899 Y100.000 E2.53826
G1 X92.921 Y99.443 E2.55620
G1 X92.986 Y98.889 E2.57414
G1 X93.095 Y98.342 E2.59208
G1 X93.247 Y97.806 E2.61003
G1 X93.440 Y97.281 E2.62803
G1 X93.680 Y96.764 E2.64637
G1 X93.945 Y96.290 E2.66385
G1 X94.255 Y95.826 E2.68179
G1 X94.600 Y95.388 E2.69973
G1 X94.979 Y94.979 E2.71768
G1 X95.388 Y94.600 E2.73562
G1 X95.826 Y94.255 E2.75356
G1 X96.290 Y93.945 E2.77150
G1 X96.776 Y93.673 E2.78944
G1 X97.283 Y93.440 E2.80739
G1 X97.806 Y93.247 E2.82533
G1 X98.342 Y93.095 E2.84327
G1 X98.889 Y92.986 E2.86121
G1 X99.443 Y92.921 E2.87916
G1 X99.986 Y92.900 E2.89663 F1800.000
G1 X100.555 Y92.921 E2.91498
G1 X101.111 Y92.986 E2.93298
G1 X101.658 Y93.095 E2.95092
G1 X102.194 Y93.247 E2.96886
G1 X102.717 Y93.440 E2.98681
G1 X103.224 Y93.673 E3.00475
G1 X103.710 Y93.945 E3.02269
G1 X104.174 Y94.255 E3.04063
G1 X104.612 Y94.600 E3.05857
G1 X105.021 Y94.979 E3.07652
G1 X105.401 Y95.390 E3.09452
G1 X105.753 Y95.838 E3.11286
G1 X106.055 Y96.290 E3.13034
G1 X106.327 Y96.776 E3.14828
G1 X106.560 Y97.283 E3.16622
G1 X106.753 Y97.806 E3.18417
G1 X106.905 Y98.342 E3.20211
G1 X107.014 Y98.889 E3.22005
G1 X107.079 Y99.443 E3.23799
G1 X107.101 Y100.000 E3.25593
G1 X107.079 Y100.557 E3.27388
G1 X107.014 Y101.111 E3.29182
G1 X106.905 Y101.658 E3.30976
G1 X106.753 Y102.194 E3.32770
G1 X106.560 Y102.719 E3.34570
G1 X106.320 Y103.236 E3.36405
G1 X106.055 Y103.710 E3.38153
G1 X105.745 Y104.174 E3.39947
G1 X105.400 Y104.612 E3.41741
G1 X105.062 Y104.977 E3.43342
G1 X104.579 Y104.579 F7800.000
G1 X104.206 Y104.924 E3.44978 F1800.000
G1 X103.806 Y105.239 E3.46615
G1 X103.384 Y105.521 E3.48251
G1 X102.940 Y105.770 E3.49887
G1 X102.478 Y105.983 E3.51523
G1 X102.001 Y106.159 E3.53159
G1 X101.512 Y106.297 E3.54796
G1 X101.013 Y106.396 E3.56432
G1 X100.508 Y106.456 E3.58068
G1 X100.000 Y106.476 E3.59704
G1 X99.492 Y106.456 E3.61340
G1 X98.987 Y106.396 E3.62976
G1 X98.488 Y106.297 E3.64613
G1 X97.999 Y106.159 E3.66249
G1 X97.522 Y105.983 E3.67885
G1 X97.060 Y105.770 E3.69521
G1 X96.616 Y105.521 E3.71157
G1 X96.194 Y105.239 E3.72794
G1 X95.794 Y104.924 E3.74430
G1 X95.421 Y104.579 E3.76066
G1 X95.076 Y104.206 E3.77702
G1 X94.761 Y103.806 E3.79338
G1 X94.479 Y103.384 E3.80975
G1 X94.230 Y102.940 E3.82611
G1 X94.017 Y102.477 E3.84250
G1 X93.838 Y101.988 E3.85927
G1 X93.703 Y101.512 E3.87519
G1 X93.604 Y101.013 E3.89155
G1 X93.544 Y100.508 E3.90792
G1 X93.524 Y100.000 E3.92428
G1 X93.544 Y99.492 E3.94064
G1 X93.604 Y98.987 E3.95700
G1 X93.703 Y98.488 E3.97336
G1 X93.841 Y97.999 E3.98972
G1 X94.018 Y97.521 E4.00612
G1 X94.237 Y97.048 E4.02289
G1 X94.479 Y96.616 E4.03881
G1 X94.761 Y96.194 E4.05517
G1 X95.076 Y95.794 E4.07153
G1 X95.421 Y95.421 E4.08789
G1 X95.794 Y95.076 E4.10426
G1 X96.194 Y94.761 E4.12062
G1 X96.616 Y94.479 E4.13698
G1 X97.060 Y94.230 E4.15334
G1 X97.522 Y94.017 E4.16970
G1 X97.999 Y93.841 E4.18607
G1 X98.488 Y93.703 E4.20243
G1 X98.987 Y93.604 E4.21879
G1 X99.492 Y93.544 E4.23515
G1 X99.986 Y93.525 E4.25107 F1800.000
G1 X100.507 Y93.544 E4.26784
G1 X101.013 Y93.604 E4.28424
G1 X101.512 Y93.703 E4.30060
G1 X102.001 Y93.841 E4.31696
G1 X102.478 Y94.017 E4.33332
G1 X102.940 Y94.230 E4.34968
G1 X103.384 Y94.479 E4.36605
G1 X103.806 Y94.761 E4.38241
G1 X104.206 Y95.076 E4.39877
G1 X104.579 Y95.421 E4.41513
G1 X104.925 Y95.795 E4.43153
G1 X105.247 Y96.205 E4.44829
G1 X105.521 Y96.616 E4.46422
G1 X105.770 Y97.060 E4.48058
G1 X105.983 Y97.522 E4.49694
G1 X106.159 Y97.999 E4.51330
G1 X106.297 Y98.488 E4.52966
G1 X106.396 Y98.987 E4.54602
G1 X106.456 Y99.492 E4.56239
G1 X106.476 Y100.000 E4.57875
G1 X106.456 Y100.508 E4.59511
G1 X106.396 Y101.013 E4.61147
G1 X106.297 Y101.512 E4.62783
G1 X106.159 Y102.001 E4.64420
G1 X105.982 Y102.479 E4.66059
G1 X105.763 Y102.952 E4.67736
G1 X105.521 Y103.384 E4.69328
G1 X105.239 Y103.806 E4.70964
G1 X104.924 Y104.206 E4.72600
G1 X104.620 Y104.535 E4.74044
G1 X104.137 Y104.137 F7800.000
G1 X103.799 Y104.449 E4.75522 F1800.000
G1 X103.439 Y104.733 E4.77000
G1 X103.057 Y104.988 E4.78478
G1 X102.656 Y105.213 E4.79956
G1 X102.239 Y105.405 E4.81434
G1 X101.808 Y105.564 E4.82913
G1 X101.366 Y105.689 E4.84391
G1 X100.915 Y105.778 E4.85869
G1 X100.459 Y105.832 E4.87347
G1 X100.000 Y105.850 E4.88825
G1 X99.541 Y105.832 E4.90303
G1 X99.085 Y105.778 E4.91782
G1 X98.634 Y105.689 E4.93260
G1 X98.192 Y105.564 E4.94738
G1 X97.761 Y105.405 E4.96216
G1 X97.344 Y105.213 E4.97694
G1 X96.943 Y104.988 E4.99173
G1 X96.561 Y104.733 E5.00651
G1 X96.201 Y104.449 E5.02129
G1 X95.863 Y104.137 E5.03607
G1 X95.551 Y103.799 E5.05085
G1 X95.267 Y103.439 E5.06563
G1 X95.012 Y103.057 E5.08042
G1 X94.787 Y102.656 E5.09520
G1 X94.595 Y102.238 E5.10999
G1 X94.433 Y101.795 E5.12518
G1 X94.311 Y101.366 E5.13954
G1 X94.222 Y100.915 E5.15432
G1 X94.168 Y100.459 E5.16911
G1 X94.150 Y100.000 E5.18389
G1 X94.168 Y99.541 E5.19867
G1 X94.222 Y99.085 E5.21345
G1 X94.311 Y98.634 E5.22823
G1 X94.436 Y98.192 E5.24301
G1 X94.595 Y97.761 E5.25781
G1 X94.794 Y97.333 E5.27299
G1 X95.012 Y96.943 E5.28736
G1 X95.267 Y96.561 E5.30214
G1 X95.551 Y96.201 E5.31692
G1 X95.863 Y95.863 E5.33170
G1 X96.201 Y95.551 E5.34649
G1 X96.561 Y95.267 E5.36127
G1 X96.943 Y95.012 E5.37605
G1 X97.344 Y94.787 E5.39083
G1 X97.761 Y94.595 E5.40561
G1 X98.192 Y94.436 E5.42039
G1 X98.634 Y94.311 E5.43518
G1 X99.085 Y94.222 E5.44996
G1 X99.541 Y94.168 E5.46474
G1 X99.987 Y94.150 E5.47910 F1800.000
G1 X100.459 Y94.168 E5.49429
G1 X100.915 Y94.222 E5.50908
G1 X101.366 Y94.311 E5.52387
G1 X101.808 Y94.436 E5.53865
G1 X102.239 Y94.595 E5.55343
G1 X102.656 Y94.787 E5.56821
G1 X103.057 Y95.012 E5.58299
G1 X103.439 Y95.267 E5.59777
G1 X103.799 Y95.551 E5.61256
G1 X104.137 Y95.863 E5.62734
G1 X104.449 Y96.201 E5.64213
G1 X104.740 Y96.572 E5.65732
G1 X104.988 Y96.943 E5.67168
G1 X105.213 Y97.344 E5.68646
G1 X105.405 Y97.761 E5.70125
G1 X105.564 Y98.192 E5.71603
G1 X105.689 Y98.634 E5.73081
G1 X105.778 Y99.085 E5.74559
G1 X105.832 Y99.541 E5.76037
G1 X105.850 Y100.000 E5.77515
G1 X105.832 Y100.459 E5.78994
G1 X105.778 Y100.915 E5.80472
G1 X105.689 Y101.366 E5.81950
G1 X105.564 Y101.808 E5.83428
G1 X105.405 Y102.239 E5.84908
G1 X105.206 Y102.667 E5.86426
G1 X104.988 Y103.057 E5.87862
G1 X104.733 Y103.439 E5.89341
G1 X104.449 Y103.799 E5.90819
G1 X104.177 Y104.093 E5.92104
G1 X104.235 Y104.524 F7800.000
G1 X111.732 Y111.732 F7800.000
G1 X111.363 Y112.100 E5.93781 F1800.000
G1 X110.581 Y112.790 E5.97137
G1 X109.757 Y113.429 E6.00493
G1 X108.894 Y114.015 E6.03849
G1 X107.997 Y114.546 E6.07204
G1 X107.068 Y115.020 E6.10560
G1 X106.111 Y115.434 E6.13915
G1 X105.131 Y115.786 E6.17267
G1 X104.097 Y116.085 E6.20729
G1 X103.110 Y116.305 E6.23982
G1 X102.080 Y116.469 E6.27338
G1 X101.042 Y116.567 E6.30693
G1 X100.000 Y116.599 E6.34049
G1 X98.958 Y116.567 E6.37405
G1 X97.920 Y116.469 E6.40760
G1 X96.890 Y116.305 E6.44116
G1 X95.872 Y116.078 E6.47472
G1 X94.870 Y115.787 E6.50827
G1 X93.889 Y115.434 E6.54183
G1 X92.932 Y115.020 E6.57538
G1 X92.003 Y114.546 E6.60894
G1 X91.106 Y114.015 E6.64250
G1 X90.243 Y113.429 E6.67605
G1 X89.419 Y112.790 E6.70961
G1 X88.637 Y112.100 E6.74317
G1 X87.900 Y111.363 E6.77672
G1 X87.210 Y110.581 E6.81028
G1 X86.571 Y109.757 E6.84384
G1 X85.985 Y108.894 E6.87739
G1 X85.454 Y107.997 E6.91095
G1 X84.980 Y107.068 E6.94450
G1 X84.566 Y106.111 E6.97806
G1 X84.224 Y105.160 E7.01059
G1 X83.922 Y104.127 E7.04522
G1 X83.695 Y103.110 E7.07873
G1 X83.531 Y102.080 E7.11228
G1 X83.433 Y101.042 E7.14584
G1 X83.401 Y100.000 E7.17940
G1 X83.433 Y98.958 E7.21295
G1 X83.531 Y97.920 E7.24651
G1 X83.695 Y96.890 E7.28006
G1 X83.922 Y95.872 E7.31362
G1 X84.213 Y94.871 E7.34718
G1 X84.566 Y93.889 E7.38074
G1 X84.980 Y92.932 E7.41429
G1 X85.454 Y92.003 E7.44785
G1 X85.968 Y91.133 E7.48037
G1 X86.572 Y90.242 E7.51500
G1 X87.210 Y89.419 E7.54851
G1 X87.900 Y88.637 E7.58207
G1 X88.637 Y87.900 E7.61562
G1 X89.419 Y87.210 E7.64918
G1 X90.243 Y86.571 E7.68274
G1 X91.106 Y85.985 E7.71629
G1 X92.003 Y85.454 E7.74985
G1 X92.932 Y84.980 E7.78341
G1 X93.889 Y84.566 E7.81696
G1 X94.871 Y84.213 E7.85052
G1 X95.872 Y83.922 E7.88408
G1 X96.890 Y83.695 E7.91763
G1 X97.920 Y83.531 E7.95119
G1 X98.956 Y83.433 E7.98470
G1 X100.032 Y83.402 E8.01933
G1 X101.042 Y83.433 E8.05185
G1 X102.080 Y83.531 E8.08541 F1800.000
G1 X103.110 Y83.695 E8.11897
G1 X104.128 Y83.922 E8.15252
G1 X105.129 Y84.213 E8.18608
G1 X106.111 Y84.566 E8.21964
G1 X107.068 Y84.980 E8.25319
G1 X107.997 Y85.454 E8.28675
G1 X108.894 Y85.985 E8.32030
G1 X109.757 Y86.571 E8.35386
G1 X110.581 Y87.210 E8.38742
G1 X111.363 Y87.900 E8.42098
G1 X112.100 Y88.637 E8.45453
G1 X112.790 Y89.419 E8.48809
G1 X113.429 Y90.243 E8.52164
G1 X114.015 Y91.106 E8.55520
G1 X114.546 Y92.003 E8.58876
G1 X115.020 Y92.932 E8.62231
G1 X115.434 Y93.889 E8.65587
G1 X115.787 Y94.870 E8.68942
G1 X116.078 Y95.872 E8.72298
G1 X116.305 Y96.890 E8.75654
G1 X116.469 Y97.920 E8.79009
G1 X116.567 Y98.958 E8.82365
G1 X116.599 Y100.000 E8.85721
G1 X116.567 Y101.042 E8.89076
G1 X116.472 Y102.049 E8.92329
G1 X116.305 Y103.112 E8.95792
G1 X116.078 Y104.128 E8.99143
G1 X115.787 Y105.129 E9.02498
G1 X115.434 Y106.111 E9.05854
G1 X115.020 Y107.068 E9.09210
G1 X114.546 Y107.997 E9.12565
G1 X114.015 Y108.894 E9.15921
G1 X113.429 Y109.757 E9.19276
G1 X112.790 Y110.581 E9.22632
G1 X112.100 Y111.363 E9.25988
G1 X111.774 Y111.689 E9.27473
G1 X112.174 Y112.174 F7800.000
G1 X111.791 Y112.556 E9.29213 F1800.000
G1 X110.979 Y113.272 E9.32696
G1 X110.124 Y113.935 E9.36178
G1 X109.229 Y114.543 E9.39660
G1 X108.298 Y115.094 E9.43142
G1 X107.334 Y115.585 E9.46624
G1 X106.341 Y116.015 E9.50106
G1 X105.324 Y116.381 E9.53585
G1 X104.252 Y116.691 E9.57174
G1 X103.228 Y116.920 E9.60552
G1 X102.159 Y117.089 E9.64034
G1 X101.082 Y117.191 E9.67516
G1 X100.000 Y117.225 E9.70998
G1 X98.918 Y117.191 E9.74480
G1 X97.841 Y117.089 E9.77961
G1 X96.772 Y116.920 E9.81444
G1 X95.716 Y116.683 E9.84926
G1 X94.677 Y116.382 E9.88408
G1 X93.659 Y116.015 E9.91890
G1 X92.666 Y115.585 E9.95372
G1 X91.702 Y115.094 E9.98854
G1 X90.771 Y114.543 E10.02336
G1 X89.876 Y113.935 E10.05818
G1 X89.021 Y113.272 E10.09300
G1 X88.209 Y112.556 E10.12782
G1 X87.444 Y111.791 E10.16263
G1 X86.728 Y110.979 E10.19746
G1 X86.065 Y110.124 E10.23228
G1 X85.457 Y109.229 E10.26710
G1 X84.906 Y108.298 E10.30192
G1 X84.415 Y107.334 E10.33674
G1 X83.985 Y106.341 E10.37156
G1 X83.629 Y105.353 E10.40533
G1 X83.316 Y104.283 E10.44122
G1 X83.080 Y103.228 E10.47602
G1 X82.911 Y102.159 E10.51084
G1 X82.809 Y101.082 E10.54566
G1 X82.775 Y100.000 E10.58048
G1 X82.809 Y98.918 E10.61530
G1 X82.911 Y97.841 E10.65012
G1 X83.080 Y96.772 E10.68494
G1 X83.317 Y95.716 E10.71976
G1 X83.618 Y94.677 E10.75458
G1 X83.985 Y93.659 E10.78940
G1 X84.415 Y92.666 E10.82422
G1 X84.906 Y91.702 E10.85904
G1 X85.440 Y90.799 E10.89281
G1 X86.066 Y89.875 E10.92870
