; generated by Slic3r 1.2.9 on 2019-01-20 at 11:16:08

; external perimeters extrusion width = 0.40mm
; perimeters extrusion width = 0.48mm
; infill extrusion width = 0.48mm
; solid infill extrusion width = 0.48mm
; top infill extrusion width = 0.48mm

M107
M190 S65 ; set bed temperature
M104 S200 ; set temperature
G28 ; home all axes
G1 Z5 F5000 ; lift nozzle

M109 S200 ; wait for temperature to be reached
G21 ; set units to millimeters
G90 ; use absolute coordinates
M82 ; use absolute distances for extrusion
G92 E0
G1 Z0.350 F7800.000
G1 E-2.00000 F2400.00000
G92 E0
G1 X36.668 Y81.524 F7800.000
G1 E2.00000 F2400.00000
G1 X38.820 Y80.731 E2.07380 F1800.000
G1 X40.000 Y80.625 E2.11192
G1 X160.000 Y80.625 E5.97339
G1 X162.259 Y81.022 E6.04719
G1 X164.247 Y82.165 E6.12100 F1800.000
G1 X165.726 Y83.918 E6.19480
G1 X166.519 Y86.070 E6.26860
G1 X166.625 Y87.250 E6.30671
G1 X166.625 Y97.250 E6.62850
G1 X166.228 Y99.509 E6.70230
G1 X165.085 Y101.497 E6.77611
G1 X162.531 Y103.372 E6.87804
G1 X141.531 Y112.056 E7.60929
G1 X139.000 Y112.558 E7.69234
G1 X61.000 Y112.558 E10.20230
G1 X58.469 Y112.056 E10.28535
G1 X37.469 Y103.372 E11.01660
G1 X35.533 Y102.142 E11.09040
G1 X34.132 Y100.326 E11.16420
G1 X33.375 Y97.250 E11.26614
G1 X33.375 Y87.250 E11.58793
G1 X33.772 Y84.991 E11.66173
G1 X34.915 Y83.003 E11.73553
G1 X36.622 Y81.563 E11.80740
G1 E9.80740 F2400.00000
G92 E0
G1 X63.400 Y95.650 F7800.000
G1 E2.00000 F2400.00000
G1 X63.400 Y104.334 E2.27942 F1800.000
G1 X62.600 Y104.334 E2.30518
G1 X62.600 Y95.650 E2.58460
G1 X41.600 Y95.650 E3.26036
G1 X41.600 Y88.850 E3.47919
G1 X158.400 Y88.850 E7.23771
G1 X158.400 Y95.650 E7.45654
G1 X137.400 Y95.650 E8.13230
G1 X137.400 Y104.334 E8.41172
G1 X136.600 Y104.334 E8.43748
G1 X136.600 Y95.650 E8.71690
G1 X63.460 Y95.650 E11.07046
G1 X64.025 Y96.275 F7800.000
G1 X64.025 Y104.958 E11.34988 F1800.000
G1 X61.975 Y104.958 E11.41585
G1 X61.975 Y96.275 E11.69527
G1 X40.975 Y96.275 E12.37103
G1 X40.975 Y88.225 E12.63008
G1 X159.025 Y88.225 E16.42881
G1 X159.025 Y96.275 E16.68786
G1 X138.025 Y96.275 E17.36362
G1 X138.025 Y104.958 E17.64304
G1 X135.975 Y104.958 E17.70902
G1 X135.975 Y96.275 E17.98844
G1 X64.085 Y96.275 E20.30178
G1 X64.650 Y96.900 F7800.000
G1 X64.650 Y105.583 E20.58120 F1800.000
G1 X61.350 Y105.583 E20.68739
G1 X61.350 Y96.900 E20.96681
G1 X40.350 Y96.900 E21.64257
G1 X40.350 Y87.600 E21.94183
G1 X159.650 Y87.600 E25.78078
G1 X159.650 Y96.900 E26.08005
G1 X138.650 Y96.900 E26.75581
G1 X138.650 Y105.583 E27.03523
G1 X135.350 Y105.583 E27.14142
G1 X135.350 Y96.900 E27.42084
G1 X64.710 Y96.900 E29.69396
G1 X64.250 Y96.900 F7800.000
G1 X63.000 Y95.338 F7800.000
G1 X63.000 Y104.021 E29.97338 F1800.000
G1 E27.97338 F2400.00000
G92 E0
G1 X42.283 Y95.272 F7800.000
G1 E2.00000 F2400.00000
G1 X41.978 Y94.967 E2.01393 F1800.000
G1 X41.978 Y94.080 E2.04256
G1 X43.170 Y95.272 E2.09697
G1 X44.057 Y95.272 E2.12560
G1 X41.978 Y93.193 E2.22050
G1 X41.978 Y92.307 E2.24913
G1 X44.943 Y95.272 E2.38452
G1 X45.830 Y95.272 E2.41315
G1 X41.978 Y91.420 E2.58902
G1 X41.978 Y90.533 E2.61765
G1 X46.717 Y95.272 E2.83401
G1 X47.604 Y95.272 E2.86264
G1 X41.978 Y89.646 E3.11949
G1 X42.447 Y89.228 E3.13977
G1 X48.490 Y95.272 E3.41570
G1 X49.377 Y95.272 E3.44433
G1 X43.334 Y89.228 E3.72027
G1 X44.220 Y89.228 E3.74890
G1 X50.264 Y95.272 E4.02484
G1 X51.150 Y95.272 E4.05347
G1 X45.107 Y89.228 E4.32941
G1 X45.994 Y89.228 E4.35804
G1 X52.037 Y95.272 E4.63398
G1 X52.924 Y95.272 E4.66260
G1 X46.880 Y89.228 E4.93854
G1 X47.767 Y89.228 E4.96717
G1 X53.810 Y95.272 E5.24311
G1 X54.697 Y95.272 E5.27174
G1 X48.654 Y89.228 E5.54768
G1 X49.540 Y89.228 E5.57631
G1 X55.584 Y95.272 E5.85225
G1 X56.470 Y95.272 E5.88088
G1 X50.427 Y89.228 E6.15682
G1 X51.314 Y89.228 E6.18544
G1 X57.357 Y95.272 E6.46138
G1 X58.244 Y95.272 E6.49001
G1 X52.201 Y89.228 E6.76595
G1 X53.087 Y89.228 E6.79458
G1 X59.130 Y95.272 E7.07052
G1 X60.017 Y95.272 E7.09915
G1 X53.974 Y89.228 E7.37509
G1 X54.861 Y89.228 E7.40372
G1 X60.904 Y95.272 E7.67966
G1 X61.791 Y95.272 E7.70828
G1 X55.747 Y89.228 E7.98422
G1 X56.634 Y89.228 E8.01285
G1 X62.365 Y94.959 E8.27453
G1 X63.252 Y94.959 E8.30315
G1 X57.521 Y89.228 E8.56483
G1 X58.407 Y89.228 E8.59346
G1 X64.451 Y95.272 E8.86940
G1 X65.337 Y95.272 E8.89802
G1 X59.294 Y89.228 E9.17396
G1 X60.181 Y89.228 E9.20259
G1 X66.224 Y95.272 E9.47853
G1 X67.111 Y95.272 E9.50716
G1 X61.067 Y89.228 E9.78310
G1 X61.954 Y89.228 E9.81173
G1 X67.997 Y95.272 E10.08767
G1 X68.884 Y95.272 E10.11630
G1 X62.841 Y89.228 E10.39223
G1 X63.727 Y89.228 E10.42086
G1 X69.771 Y95.272 E10.69680
G1 X70.657 Y95.272 E10.72543
G1 X64.614 Y89.228 E11.00137
G1 X65.501 Y89.228 E11.03000
G1 X71.544 Y95.272 E11.30594
G1 X72.431 Y95.272 E11.33457
G1 X66.388 Y89.228 E11.61051
G1 X67.274 Y89.228 E11.63913
G1 X73.318 Y95.272 E11.91507
G1 X74.204 Y95.272 E11.94370
G1 X68.161 Y89.228 E12.21964
G1 X69.048 Y89.228 E12.24827
G1 X75.091 Y95.272 E12.52421
G1 X75.978 Y95.272 E12.55284
G1 X69.934 Y89.228 E12.82878
G1 X70.821 Y89.228 E12.85741
G1 X76.864 Y95.272 E13.13335
G1 X77.751 Y95.272 E13.16197
G1 X71.708 Y89.228 E13.43791
G1 X72.594 Y89.228 E13.46654
G1 X78.638 Y95.272 E13.74248
G1 X79.524 Y95.272 E13.77111
G1 X73.481 Y89.228 E14.04705
G1 X74.368 Y89.228 E14.07568
G1 X80.411 Y95.272 E14.35162
G1 X81.298 Y95.272 E14.38025
G1 X75.254 Y89.228 E14.65619
G1 X76.141 Y89.228 E14.68481
G1 X82.184 Y95.272 E14.96075
G1 X83.071 Y95.272 E14.98938
G1 X77.028 Y89.228 E15.26532
G1 X77.915 Y89.228 E15.29395
G1 X83.958 Y95.272 E15.56989
G1 X84.844 Y95.272 E15.59852
G1 X78.801 Y89.228 E15.87446
G1 X79.688 Y89.228 E15.90309
G1 X85.731 Y95.272 E16.17902
G1 X86.618 Y95.272 E16.20765
G1 X80.575 Y89.228 E16.48359
G1 X81.461 Y89.228 E16.51222
G1 X87.505 Y95.272 E16.78816
G1 X88.391 Y95.272 E16.81679
G1 X82.348 Y89.228 E17.09273
G1 X83.235 Y89.228 E17.12136
G1 X89.278 Y95.272 E17.39730
G1 X90.165 Y95.272 E17.42592
G1 X84.121 Y89.228 E17.70186
G1 X85.008 Y89.228 E17.73049
G1 X91.051 Y95.272 E18.00643
G1 X91.938 Y95.272 E18.03506
G1 X85.895 Y89.228 E18.31100
G1 X86.781 Y89.228 E18.33963
G1 X92.825 Y95.272 E18.61557
G1 X93.711 Y95.272 E18.64420
G1 X87.668 Y89.228 E18.92014
G1 X88.555 Y89.228 E18.94876
G1 X94.598 Y95.272 E19.22470
G1 X95.485 Y95.272 E19.25333
G1 X89.441 Y89.228 E19.52927
G1 X90.328 Y89.228 E19.55790
G1 X96.371 Y95.272 E19.83384
G1 X97.258 Y95.272 E19.86247
G1 X91.215 Y89.228 E20.13841
G1 X92.102 Y89.228 E20.16704
G1 X98.145 Y95.272 E20.44298
G1 X99.032 Y95.272 E20.47160
G1 X92.988 Y89.228 E20.74754
G1 X93.875 Y89.228 E20.77617
G1 X99.918 Y95.272 E21.05211
G1 X100.805 Y95.272 E21.08074
G1 X94.762 Y89.228 E21.35668
G1 X95.648 Y89.228 E21.38531
G1 X101.692 Y95.272 E21.66125
G1 X102.578 Y95.272 E21.68988
G1 X96.535 Y89.228 E21.96581
G1 X97.422 Y89.228 E21.99444
G1 X103.465 Y95.272 E22.27038
G1 X104.352 Y95.272 E22.29901
G1 X98.308 Y89.228 E22.57495
G1 X99.195 Y89.228 E22.60358
G1 X105.238 Y95.272 E22.87952
G1 X106.125 Y95.272 E22.90815
G1 X100.082 Y89.228 E23.18409
G1 X100.968 Y89.228 E23.21272
G1 X107.012 Y95.272 E23.48865
G1 X107.898 Y95.272 E23.51728
G1 X101.855 Y89.228 E23.79322
G1 X102.742 Y89.228 E23.82185
G1 X108.785 Y95.272 E24.09779
G1 X109.672 Y95.272 E24.12642
G1 X103.628 Y89.228 E24.40236
G1 X104.515 Y89.228 E24.43099
G1 X110.558 Y95.272 E24.70693
G1 X111.445 Y95.272 E24.73555
G1 X105.402 Y89.228 E25.01149
G1 X106.289 Y89.228 E25.04012
G1 X112.332 Y95.272 E25.31606
G1 X113.219 Y95.272 E25.34469
G1 X107.175 Y89.228 E25.62063
G1 X108.062 Y89.228 E25.64926
G1 X114.105 Y95.272 E25.92520
G1 X114.992 Y95.272 E25.95383
G1 X108.949 Y89.228 E26.22977
G1 X109.835 Y89.228 E26.25839
G1 X115.879 Y95.272 E26.53433
G1 X116.765 Y95.272 E26.56296
G1 X110.722 Y89.228 E26.83890
G1 X111.609 Y89.228 E26.86753
G1 X117.652 Y95.272 E27.14347
G1 X118.539 Y95.272 E27.17210
G1 X112.495 Y89.228 E27.44804
G1 X113.382 Y89.228 E27.47667
G1 X119.425 Y95.272 E27.75261
G1 X120.312 Y95.272 E27.78123
G1 X114.269 Y89.228 E28.05717
G1 X115.155 Y89.228 E28.08580
G1 X121.199 Y95.272 E28.36174
G1 X122.085 Y95.272 E28.39037
G1 X116.042 Y89.228 E28.66631
G1 X116.929 Y89.228 E28.69494
G1 X122.972 Y95.272 E28.97088
G1 X123.859 Y95.272 E28.99951
G1 X117.816 Y89.228 E29.27545
G1 X118.702 Y89.228 E29.30407
G1 X124.745 Y95.272 E29.58001
G1 X125.632 Y95.272 E29.60864
G1 X119.589 Y89.228 E29.88458
G1 X120.476 Y89.228 E29.91321
G1 X126.519 Y95.272 E30.18915
G1 X127.406 Y95.272 E30.21778
G1 X121.362 Y89.228 E30.49372
G1 X122.249 Y89.228 E30.52235
G1 X128.292 Y95.272 E30.79829
G1 X129.179 Y95.272 E30.82691
G1 X123.136 Y89.228 E31.10285
G1 X124.022 Y89.228 E31.13148
G1 X130.066 Y95.272 E31.40742
G1 X130.952 Y95.272 E31.43605
G1 X124.909 Y89.228 E31.71199
G1 X125.796 Y89.228 E31.74062
G1 X131.839 Y95.272 E32.01656
G1 X132.726 Y95.272 E32.04519
G1 X126.682 Y89.228 E32.32113
G1 X127.569 Y89.228 E32.34975
G1 X133.612 Y95.272 E32.62569
G1 X134.499 Y95.272 E32.65432
G1 X128.456 Y89.228 E32.93026
G1 X129.342 Y89.228 E32.95889
G1 X135.386 Y95.272 E33.23483
G1 X136.271 Y95.271 E33.26342
G1 X130.229 Y89.228 E33.53932
G1 X131.116 Y89.228 E33.56794
G1 X136.847 Y94.959 E33.82962
G1 X138.046 Y95.272 F7800.000
G1 X132.003 Y89.228 E34.10556 F1800.000
G1 X132.889 Y89.228 E34.13419
G1 X138.933 Y95.272 E34.41013
G1 X139.819 Y95.272 E34.43875
G1 X133.776 Y89.228 E34.71469
G1 X134.663 Y89.228 E34.74332
G1 X140.706 Y95.272 E35.01926
G1 X141.593 Y95.272 E35.04789
G1 X135.549 Y89.228 E35.32383
G1 X136.436 Y89.228 E35.35246
G1 X142.479 Y95.272 E35.62840
G1 X143.366 Y95.272 E35.65703
G1 X137.323 Y89.228 E35.93297
G1 X138.209 Y89.228 E35.96159
G1 X144.253 Y95.272 E36.23753
G1 X145.139 Y95.272 E36.26616
G1 X139.096 Y89.228 E36.54210
G1 X139.983 Y89.228 E36.57073
G1 X146.026 Y95.272 E36.84667
G1 X146.913 Y95.272 E36.87530
G1 X140.869 Y89.228 E37.15124
G1 X141.756 Y89.228 E37.17987
G1 X147.799 Y95.272 E37.45581
G1 X148.686 Y95.272 E37.48443
G1 X142.643 Y89.228 E37.76037
G1 X143.529 Y89.228 E37.78900
G1 X149.573 Y95.272 E38.06494
G1 X150.459 Y95.272 E38.09357
G1 X144.416 Y89.228 E38.36951
G1 X145.303 Y89.228 E38.39814
G1 X151.346 Y95.272 E38.67408
G1 X152.233 Y95.272 E38.70270
G1 X146.190 Y89.228 E38.97864
G1 X147.076 Y89.228 E39.00727
G1 X153.120 Y95.272 E39.28321
G1 X154.006 Y95.272 E39.31184
G1 X147.963 Y89.228 E39.58778
G1 X148.850 Y89.228 E39.61641
G1 X154.893 Y95.272 E39.89235
G1 X155.780 Y95.272 E39.92098
G1 X149.736 Y89.228 E40.19692
G1 X150.623 Y89.228 E40.22554
G1 X156.666 Y95.272 E40.50148
G1 X157.553 Y95.272 E40.53011
G1 X151.510 Y89.228 E40.80605
G1 X152.396 Y89.228 E40.83468
G1 X158.022 Y94.854 E41.09153
G1 X158.022 Y93.967 E41.12016
G1 X153.283 Y89.228 E41.33653
G1 X154.170 Y89.228 E41.36515
G1 X158.022 Y93.080 E41.54103
G1 X158.022 Y92.194 E41.56966
G1 X155.056 Y89.228 E41.70505
G1 X155.943 Y89.228 E41.73368
G1 X158.022 Y91.307 E41.82859
G1 X158.022 Y90.420 E41.85721
G1 X156.830 Y89.228 E41.91163
G1 X157.717 Y89.228 E41.94026
G1 X158.022 Y89.533 E41.95419
G1 X137.000 Y95.338 F7800.000
G1 X137.000 Y104.021 E42.23361 F1800.000
G1 Z0.650 F7800.000
G1 E40.23361 F2400.00000
G92 E0
G1 X64.004 Y96.254 F7800.000
G1 E2.00000 F2400.00000
G1 X64.004 Y106.108 E2.18220 F1800.000
G1 X61.996 Y106.108 E2.21932
G1 X61.996 Y96.254 E2.40151
G1 X40.996 Y96.254 E2.78978
G1 X40.996 Y88.246 E2.93783
G1 X159.004 Y88.246 E5.11966
G1 X159.004 Y96.254 E5.26772
G1 X138.004 Y96.254 E5.65599
G1 X138.004 Y106.108 E5.83818
G1 X135.996 Y106.108 E5.87530
G1 X135.996 Y96.254 E6.05750
G1 X64.064 Y96.254 E7.38744
G1 X64.423 Y96.673 F7800.000
G1 X64.423 Y106.133 E7.56236 F1800.000
G1 X64.423 Y106.527 E7.56964 F3600.000
G1 X61.577 Y106.527 E7.62225
G1 X61.577 Y106.133 E7.62953
G1 X61.577 Y96.673 E7.80445 F1800.000
G1 X40.577 Y96.673 E8.19271
G1 X40.577 Y87.827 E8.35626
G1 X159.423 Y87.827 E10.55358
G1 X159.423 Y96.673 E10.71712
G1 X138.423 Y96.673 E11.10539
G1 X138.423 Y106.133 E11.28030
G1 X138.423 Y106.527 E11.28758 F3600.000
G1 X135.577 Y106.527 E11.34019
G1 X135.577 Y106.133 E11.34747
G1 X135.577 Y96.673 E11.52239 F1800.000
G1 X64.483 Y96.673 E12.83685
G1 X64.800 Y97.050 F7800.000
G1 X64.800 Y106.133 E12.97141 F900.000
G1 X64.800 Y106.904 E12.98566 F3600.000
G1 X61.200 Y106.904 E13.05222
G1 X61.200 Y106.133 E13.06647
G1 X61.200 Y97.050 E13.20103 F900.000
G1 X40.200 Y97.050 E13.51213
G1 X40.200 Y87.450 E13.65434
G1 X159.800 Y87.450 E15.42608
G1 X159.800 Y97.050 E15.56829
G1 X138.800 Y97.050 E15.87939
G1 X138.800 Y106.133 E16.01395
G1 X138.800 Y106.904 E16.02820 F3600.000
G1 X135.200 Y106.904 E16.09476
G1 X135.200 Y106.133 E16.10901
G1 X135.200 Y97.050 E16.24357 F900.000
G1 X64.860 Y97.050 E17.28558
G1 X64.400 Y97.050 F7800.000
G1 X62.243 Y98.562 F7800.000
G1 X63.757 Y97.049 E17.32522 F1200.000
G1 X63.757 Y97.642 E17.33620
G1 X62.243 Y99.155 E17.37583
G1 X62.243 Y99.749 E17.38682
G1 X63.757 Y98.235 E17.42645
G1 X63.757 Y98.829 E17.43744
G1 X62.243 Y100.342 E17.47707
G1 X62.243 Y100.935 E17.48806
G1 X63.757 Y99.422 E17.52769
G1 X63.757 Y100.015 E17.53867
G1 X62.243 Y101.529 E17.57831
G1 X62.243 Y102.122 E17.58929
G1 X63.757 Y100.609 E17.62892
G1 X63.757 Y101.202 E17.63991
G1 X62.243 Y102.715 E17.67954
G1 X62.243 Y103.309 E17.69053
G1 X63.757 Y101.795 E17.73016
G1 X63.757 Y102.388 E17.74115
G1 X62.243 Y103.902 E17.78078
G1 X62.243 Y104.495 E17.79176
G1 X63.757 Y102.982 E17.83140
G1 X63.757 Y103.575 E17.84238
G1 X62.399 Y104.933 E17.87794
G1 X62.992 Y104.933 E17.88893
G1 X63.757 Y104.168 E17.90895
G1 E15.90895 F2400.00000
G92 E0
G1 X41.461 Y88.493 F7800.000
G1 E2.00000 F2400.00000
G1 X41.243 Y88.711 E2.00570 F1200.000
G1 X41.243 Y89.304 E2.01669
G1 X42.054 Y88.493 E2.03793
G1 X42.648 Y88.493 E2.04891
G1 X41.243 Y89.898 E2.08569
G1 X41.243 Y90.491 E2.09667
G1 X43.241 Y88.493 E2.14898
G1 X43.834 Y88.493 E2.15997
G1 X41.243 Y91.084 E2.22782
G1 X41.243 Y91.677 E2.23880
G1 X44.427 Y88.493 E2.32219
G1 X45.021 Y88.493 E2.33317
G1 X41.243 Y92.271 E2.43210
G1 X41.243 Y92.864 E2.44308
G1 X45.614 Y88.493 E2.55754
G1 X46.207 Y88.493 E2.56853
G1 X41.243 Y93.457 E2.69852
G1 X41.243 Y94.051 E2.70951
G1 X46.801 Y88.493 E2.85504
G1 X47.394 Y88.493 E2.86603
G1 X41.243 Y94.644 E3.02709
G1 X41.243 Y95.237 E3.03808
G1 X47.987 Y88.493 E3.21469
G1 X48.581 Y88.493 E3.22567
G1 X41.243 Y95.831 E3.41781
G1 X41.660 Y96.007 E3.42620
G1 X49.174 Y88.493 E3.62295
G1 X49.767 Y88.493 E3.63394
G1 X42.254 Y96.007 E3.83070
G1 X42.847 Y96.007 E3.84168
G1 X50.360 Y88.493 E4.03844
G1 X50.954 Y88.493 E4.04942
G1 X43.440 Y96.007 E4.24618
G1 X44.034 Y96.007 E4.25717
G1 X51.547 Y88.493 E4.45392
G1 X52.140 Y88.493 E4.46491
G1 X44.627 Y96.007 E4.66166
G1 X45.220 Y96.007 E4.67265
G1 X52.734 Y88.493 E4.86941
G1 X53.327 Y88.493 E4.88039
G1 X45.813 Y96.007 E5.07715
G1 X46.407 Y96.007 E5.08813
G1 X53.920 Y88.493 E5.28489
G1 X54.513 Y88.493 E5.29588
G1 X47.000 Y96.007 E5.49263
G1 X47.593 Y96.007 E5.50362
G1 X55.107 Y88.493 E5.70037
G1 X55.700 Y88.493 E5.71136
G1 X48.187 Y96.007 E5.90812
G1 X48.780 Y96.007 E5.91910
G1 X56.293 Y88.493 E6.11586
G1 X56.887 Y88.493 E6.12684
G1 X49.373 Y96.007 E6.32360
G1 X49.966 Y96.007 E6.33459
G1 X57.480 Y88.493 E6.53134
G1 X58.073 Y88.493 E6.54233
G1 X50.560 Y96.007 E6.73908
G1 X51.153 Y96.007 E6.75007
G1 X58.666 Y88.493 E6.94683
G1 X59.260 Y88.493 E6.95781
G1 X51.746 Y96.007 E7.15457
G1 X52.340 Y96.007 E7.16555
G1 X59.853 Y88.493 E7.36231
G1 X60.446 Y88.493 E7.37330
G1 X52.933 Y96.007 E7.57005
G1 X53.526 Y96.007 E7.58104
G1 X61.040 Y88.493 E7.77779
G1 X61.633 Y88.493 E7.78878
G1 X54.120 Y96.007 E7.98554
G1 X54.713 Y96.007 E7.99652
G1 X62.226 Y88.493 E8.19328
G1 X62.820 Y88.493 E8.20426
G1 X55.306 Y96.007 E8.40102
G1 X55.899 Y96.007 E8.41201
G1 X63.413 Y88.493 E8.60876
G1 X64.006 Y88.493 E8.61975
G1 X56.493 Y96.007 E8.81650
G1 X57.086 Y96.007 E8.82749
G1 X64.599 Y88.493 E9.02425
G1 X65.193 Y88.493 E9.03523
G1 X57.679 Y96.007 E9.23199
G1 X58.273 Y96.007 E9.24297
G1 X65.786 Y88.493 E9.43973
G1 X66.379 Y88.493 E9.45072
G1 X58.866 Y96.007 E9.64747
G1 X59.459 Y96.007 E9.65846
G1 X66.973 Y88.493 E9.85521
G1 X67.566 Y88.493 E9.86620
G1 X60.052 Y96.007 E10.06296
G1 X60.646 Y96.007 E10.07394
G1 X68.159 Y88.493 E10.27070
G1 X68.752 Y88.493 E10.28168
G1 X61.239 Y96.007 E10.47844
