; generated by Slic3r 1.2.9 on 2019-01-06 at 10:57:46

; external perimeters extrusion width = 0.40mm
; perimeters extrusion width = 0.48mm
; infill extrusion width = 0.48mm
; solid infill extrusion width = 0.48mm
; top infill extrusion width = 0.48mm

M107
M190 S65 ; set bed temperature
M104 S200 ; set temperature
G28 ; home all axes
G1 Z5 F5000 ; lift nozzle

M109 S200 ; wait for temperature to be reached
G21 ; set units to millimeters
G90 ; use absolute coordinates
M82 ; use absolute distances for extrusion
G92 E0
G1 Z0.350 F7800.000
G1 E-2.00000 F2400.00000
G92 E0
G1 X145.403 Y136.856 F7800.000
G1 E2.00000 F2400.00000
G1 X145.656 Y136.603 E2.01152 F1800.000
G1 X145.949 Y136.398 E2.02303
G1 X146.275 Y136.246 E2.03460
G1 X146.638 Y136.153 E2.04667
G1 X146.975 Y136.123 E2.05757 F1800.000
G1 X147.332 Y136.155 E2.06908
G1 X147.677 Y136.248 E2.08059
G1 X148.001 Y136.399 E2.09209
G1 X148.294 Y136.604 E2.10360
G1 X148.547 Y136.857 E2.11511
G1 X148.752 Y137.150 E2.12662
G1 X148.903 Y137.474 E2.13813
G1 X148.995 Y137.820 E2.14964
G1 X149.026 Y138.178 E2.16121
G1 X148.987 Y138.576 E2.17407
G1 X148.870 Y138.961 E2.18701
G1 X148.680 Y139.315 E2.19994
G1 X148.425 Y139.626 E2.21288
G1 X148.114 Y139.881 E2.22582
G1 X147.760 Y140.070 E2.23875
G1 X147.375 Y140.187 E2.25169
G1 X146.977 Y140.227 E2.26455
G1 X146.619 Y140.196 E2.27613
G1 X146.274 Y140.103 E2.28764
G1 X145.949 Y139.952 E2.29914
G1 X145.656 Y139.747 E2.31065
G1 X145.403 Y139.495 E2.32215
G1 X145.198 Y139.202 E2.33367
G1 X145.047 Y138.878 E2.34517
G1 X144.954 Y138.532 E2.35668
G1 X144.923 Y138.176 E2.36819
G1 X144.954 Y137.820 E2.37970
G1 X145.041 Y137.492 E2.39061
G1 X145.196 Y137.151 E2.40267
G1 X145.368 Y136.906 E2.41231
G1 X145.290 Y136.517 F7800.000
G1 E0.41231 F2400.00000
G92 E0
G1 X146.978 Y43.876 F7800.000
G1 E2.00000 F2400.00000
G1 X146.619 Y43.846 E2.01158 F1800.000
G1 X146.273 Y43.753 E2.02310
G1 X145.949 Y43.602 E2.03460
G1 X145.657 Y43.397 E2.04611
G1 X145.403 Y43.145 E2.05761
G1 X145.198 Y42.852 E2.06913
G1 X145.047 Y42.527 E2.08065
G1 X144.954 Y42.182 E2.09214
G1 X144.923 Y41.826 E2.10365
G1 X144.954 Y41.470 E2.11515
G1 X145.046 Y41.124 E2.12667
G1 X145.197 Y40.799 E2.13820
G1 X145.402 Y40.506 E2.14971
G1 X145.656 Y40.253 E2.16124
G1 X145.949 Y40.048 E2.17276
G1 X146.275 Y39.896 E2.18432
G1 X146.638 Y39.802 E2.19640
G1 X146.976 Y39.774 E2.20730 F1800.000
G1 X147.332 Y39.805 E2.21880
G1 X147.677 Y39.898 E2.23030
G1 X148.001 Y40.049 E2.24180
G1 X148.294 Y40.254 E2.25332
G1 X148.547 Y40.507 E2.26483
G1 X148.751 Y40.800 E2.27634
G1 X148.903 Y41.124 E2.28783
G1 X148.995 Y41.470 E2.29936
G1 X149.026 Y41.828 E2.31092
G1 X148.987 Y42.226 E2.32377
G1 X148.870 Y42.611 E2.33672
G1 X148.680 Y42.966 E2.34967
G1 X148.425 Y43.276 E2.36258
G1 X148.115 Y43.531 E2.37553
G1 X147.760 Y43.721 E2.38849
G1 X147.375 Y43.837 E2.40141
G1 X147.038 Y43.871 E2.41232
G1 X146.791 Y44.184 F7800.000
G1 E0.41232 F2400.00000
G92 E0
G1 X142.225 Y31.400 F7800.000
G1 E2.00000 F2400.00000
G1 X142.225 Y34.078 E2.08617 F1800.000
G1 X142.286 Y34.734 E2.10737
G1 X142.482 Y35.422 E2.13040
G1 X142.782 Y36.044 E2.15261
G1 X143.170 Y36.608 E2.17465
G1 X143.797 Y37.277 E2.20414
G1 X144.297 Y37.701 E2.22525
G1 X145.044 Y38.236 E2.25480
G1 X145.842 Y38.719 E2.28482
G1 X145.322 Y38.961 E2.30327
G1 X144.849 Y39.292 E2.32186
G1 X144.441 Y39.700 E2.34044
G1 X144.111 Y40.172 E2.35898
G1 X143.867 Y40.696 E2.37756
G1 X143.718 Y41.253 E2.39612
G1 X143.668 Y41.827 E2.41465
G1 X143.719 Y42.401 E2.43320
G1 X143.868 Y42.957 E2.45171
G1 X144.111 Y43.479 E2.47025
G1 X144.443 Y43.952 E2.48886
G1 X144.851 Y44.359 E2.50739
G1 X145.323 Y44.689 E2.52592
G1 X145.844 Y44.932 E2.54443
G1 X145.044 Y45.416 E2.57452
G1 X144.298 Y45.950 E2.60404
G1 X143.814 Y46.359 E2.62442
G1 X143.367 Y46.811 E2.64488
G1 X142.962 Y47.324 E2.66591
G1 X142.621 Y47.908 E2.68769
G1 X142.383 Y48.529 E2.70910
G1 X142.283 Y48.952 E2.72307
G1 X142.225 Y49.572 E2.74311
G1 X142.225 Y56.600 E2.96926
G1 X159.881 Y56.600 E3.53739
G1 X159.881 Y123.400 E5.68696
G1 X142.225 Y123.400 E6.25510
G1 X142.225 Y130.428 E6.48123
G1 X142.283 Y131.048 E6.50128
G1 X142.382 Y131.471 E6.51527
G1 X142.621 Y132.093 E6.53669
G1 X142.962 Y132.677 E6.55847
G1 X143.367 Y133.189 E6.57948
G1 X143.813 Y133.641 E6.59991
G1 X144.297 Y134.051 E6.62033
G1 X145.044 Y134.585 E6.64987
G1 X145.842 Y135.069 E6.67990
G1 X145.322 Y135.311 E6.69838
G1 X144.849 Y135.642 E6.71694
G1 X144.441 Y136.050 E6.73550
G1 X144.106 Y136.529 E6.75430
G1 X143.861 Y137.070 E6.77342
G1 X143.718 Y137.602 E6.79117
G1 X143.668 Y138.177 E6.80972
G1 X143.719 Y138.751 E6.82827
G1 X143.868 Y139.307 E6.84680
G1 X144.112 Y139.830 E6.86535
G1 X144.443 Y140.302 E6.88391
G1 X144.851 Y140.709 E6.90245
G1 X145.323 Y141.039 E6.92099
G1 X145.844 Y141.282 E6.93950
G1 X145.044 Y141.767 E6.96959
G1 X144.298 Y142.300 E6.99912
G1 X143.814 Y142.710 E7.01952
G1 X143.385 Y143.143 E7.03915
G1 X143.146 Y143.428 E7.05110
G1 X142.782 Y143.956 E7.07174
G1 X142.482 Y144.577 E7.09395
G1 X142.286 Y145.265 E7.11697
G1 X142.225 Y145.922 E7.13820
G1 X142.225 Y148.600 E7.22435
G1 X143.225 Y148.600 E7.25653
G1 X143.225 Y173.400 E8.05459
G1 X111.425 Y173.400 E9.07789
G1 X111.425 Y172.400 E9.11007
G1 X44.225 Y172.400 E11.27248
G1 X44.225 Y173.400 E11.30466
G1 X19.425 Y173.400 E12.10271
G1 X19.425 Y148.600 E12.90077
G1 X20.425 Y148.600 E12.93295
G1 X20.425 Y145.923 E13.01908
G1 X20.364 Y145.266 E13.04030
G1 X20.168 Y144.576 E13.06338
G1 X19.867 Y143.956 E13.08558
G1 X19.506 Y143.428 E13.10616
G1 X19.266 Y143.142 E13.11816
G1 X18.836 Y142.709 E13.13780
G1 X18.353 Y142.299 E13.15820
G1 X17.605 Y141.765 E13.18778
G1 X16.808 Y141.281 E13.21778
G1 X17.328 Y141.039 E13.23627
G1 X17.802 Y140.707 E13.25488
G1 X18.209 Y140.299 E13.27344
G1 X18.538 Y139.829 E13.29189
G1 X18.784 Y139.305 E13.31051
G1 X18.932 Y138.747 E13.32909
G1 X18.982 Y138.174 E13.34759
G1 X18.931 Y137.599 E13.36618
G1 X18.782 Y137.043 E13.38469
G1 X18.539 Y136.521 E13.40321
G1 X18.207 Y136.048 E13.42181
G1 X17.799 Y135.640 E13.44038
G1 X17.327 Y135.311 E13.45891
G1 X16.828 Y135.079 E13.47662
G1 X17.868 Y134.406 E13.51648
G1 X18.592 Y133.855 E13.54574
G1 X19.063 Y133.422 E13.56634
G1 X19.475 Y132.961 E13.58624
G1 X19.700 Y132.653 E13.59852
G1 X20.010 Y132.125 E13.61821
G1 X20.177 Y131.743 E13.63163
G1 X20.364 Y131.084 E13.65369
G1 X20.425 Y130.427 E13.67491
G1 X20.415 Y49.278 E16.28620
G1 X20.287 Y48.600 E16.30841
G1 X20.153 Y48.195 E16.32213
G1 X19.867 Y47.606 E16.34320
G1 X19.481 Y47.042 E16.36520
G1 X18.853 Y46.373 E16.39472
G1 X18.353 Y45.949 E16.41582
G1 X17.605 Y45.414 E16.44541
G1 X16.808 Y44.931 E16.47540
G1 X17.348 Y44.680 E16.49456
G1 X17.808 Y44.352 E16.51274
G1 X18.210 Y43.948 E16.53107
G1 X18.538 Y43.479 E16.54952
G1 X18.784 Y42.954 E16.56815
G1 X18.932 Y42.396 E16.58674
G1 X18.982 Y41.824 E16.60522
G1 X18.931 Y41.249 E16.62380
G1 X18.782 Y40.694 E16.64229
G1 X18.539 Y40.172 E16.66080
G1 X18.207 Y39.697 E16.67945
G1 X17.798 Y39.290 E16.69801
G1 X17.327 Y38.960 E16.71654
G1 X16.805 Y38.718 E16.73504
G1 X17.605 Y38.234 E16.76512
G1 X18.352 Y37.700 E16.79466
G1 X18.835 Y37.291 E16.81503
G1 X19.266 Y36.857 E16.83470
G1 X19.505 Y36.572 E16.84670
G1 X19.867 Y36.044 E16.86729
G1 X20.168 Y35.423 E16.88948
G1 X20.364 Y34.733 E16.91257
G1 X20.425 Y34.077 E16.93377
G1 X20.425 Y31.400 E17.01992
G1 X19.425 Y31.400 E17.05209
G1 X19.425 Y6.600 E17.85015
G1 X44.225 Y6.600 E18.64820
G1 X44.225 Y7.600 E18.68038
G1 X101.760 Y7.600 E20.53179
G1 X101.760 Y8.560 E20.56269
G1 X44.225 Y8.557 E22.41410
G1 X44.225 Y31.400 E23.14917
G1 X21.382 Y31.400 E23.88422
G1 X21.382 Y148.600 E27.65558
G1 X44.225 Y148.600 E28.39064
G1 X44.225 Y171.443 E29.12571
G1 X111.425 Y171.443 E31.28813
G1 X111.425 Y148.600 E32.02320
G1 X141.268 Y148.600 E32.98352
G1 X141.268 Y31.400 E36.75488
G1 X111.425 Y31.400 E37.71521
G1 X111.425 Y6.600 E38.51326
G1 X143.225 Y6.600 E39.53657
G1 X143.225 Y31.400 E40.33462
G1 X142.285 Y31.400 E40.36487
G1 X142.850 Y32.025 F7800.000
G1 X142.850 Y34.049 E40.43000 F1800.000
G1 X142.903 Y34.619 E40.44841
G1 X143.068 Y35.199 E40.46783
G1 X143.324 Y35.729 E40.48676
G1 X143.659 Y36.216 E40.50576
G1 X144.228 Y36.824 E40.53257
G1 X144.682 Y37.208 E40.55170
G1 X145.388 Y37.713 E40.57966
G1 X146.889 Y38.622 E40.63611
G1 X147.290 Y38.891 E40.65166
G1 X147.194 Y39.166 E40.66102
G1 X146.977 Y39.146 E40.66803
G1 X146.533 Y39.184 E40.68237
G1 X146.063 Y39.305 E40.69798
G1 X145.636 Y39.504 E40.71315
G1 X145.252 Y39.772 E40.72821
G1 X144.922 Y40.103 E40.74326
G1 X144.654 Y40.486 E40.75828
G1 X144.456 Y40.910 E40.77334
G1 X144.336 Y41.362 E40.78838
G1 X144.295 Y41.826 E40.80340
G1 X144.336 Y42.292 E40.81842
G1 X144.457 Y42.742 E40.83342
G1 X144.655 Y43.165 E40.84845
G1 X144.923 Y43.549 E40.86352
G1 X145.254 Y43.878 E40.87853
G1 X145.636 Y44.146 E40.89355
G1 X146.059 Y44.343 E40.90856
G1 X146.511 Y44.464 E40.92362
G1 X146.982 Y44.504 E40.93885
G1 X147.195 Y44.483 E40.94574
G1 X147.294 Y44.758 E40.95516
G1 X146.889 Y45.030 E40.97085
G1 X145.388 Y45.939 E41.02730
G1 X144.682 Y46.444 E41.05524
G1 X144.239 Y46.818 E41.07392
G1 X143.836 Y47.225 E41.09235
G1 X143.480 Y47.677 E41.11085
G1 X143.186 Y48.180 E41.12960
G1 X142.981 Y48.714 E41.14801
G1 X142.901 Y49.053 E41.15923
G1 X142.850 Y49.601 E41.17693
G1 X142.850 Y55.975 E41.38204
G1 X160.506 Y55.975 E41.95017
G1 X160.506 Y124.025 E44.13996
G1 X142.850 Y124.025 E44.70810
G1 X142.850 Y130.399 E44.91319
G1 X142.901 Y130.947 E44.93091
G1 X142.981 Y131.286 E44.94214
G1 X143.186 Y131.821 E44.96056
G1 X143.480 Y132.324 E44.97930
G1 X143.836 Y132.775 E44.99779
G1 X144.238 Y133.182 E45.01621
G1 X144.682 Y133.557 E45.03491
G1 X145.388 Y134.063 E45.06287
G1 X146.889 Y134.973 E45.11933
G1 X147.290 Y135.241 E45.13486
G1 X147.193 Y135.515 E45.14422
G1 X146.976 Y135.496 E45.15125
G1 X146.532 Y135.535 E45.16558
G1 X146.063 Y135.655 E45.18116
G1 X145.635 Y135.855 E45.19635
G1 X145.252 Y136.123 E45.21139
G1 X144.922 Y136.453 E45.22643
G1 X144.651 Y136.840 E45.24161
G1 X144.451 Y137.281 E45.25720
G1 X144.336 Y137.711 E45.27153
G1 X144.295 Y138.177 E45.28657
G1 X144.336 Y138.642 E45.30160
G1 X144.457 Y139.092 E45.31661
G1 X144.655 Y139.516 E45.33164
G1 X144.923 Y139.898 E45.34668
G1 X145.254 Y140.228 E45.36170
G1 X145.636 Y140.496 E45.37672
G1 X146.059 Y140.693 E45.39175
G1 X146.511 Y140.813 E45.40678
G1 X146.981 Y140.854 E45.42198
G1 X147.195 Y140.833 E45.42889
G1 X147.294 Y141.109 E45.43831
G1 X146.889 Y141.379 E45.45399
G1 X145.389 Y142.289 E45.51043
G1 X144.682 Y142.794 E45.53838
G1 X144.238 Y143.169 E45.55708
G1 X143.847 Y143.565 E45.57500
G1 X143.644 Y143.806 E45.58515
G1 X143.324 Y144.271 E45.60329
G1 X143.068 Y144.801 E45.62223
G1 X142.903 Y145.381 E45.64164
G1 X142.850 Y145.951 E45.66008
G1 X142.850 Y147.975 E45.72519
G1 X143.850 Y147.975 E45.75737
G1 X143.850 Y174.025 E46.59564
G1 X110.800 Y174.025 E47.65916
G1 X110.800 Y173.025 E47.69134
G1 X44.850 Y173.025 E49.81354
G1 X44.850 Y174.025 E49.84572
G1 X18.800 Y174.025 E50.68399
G1 X18.800 Y147.975 E51.52226
G1 X19.800 Y147.975 E51.55444
G1 X19.800 Y145.952 E51.61954
G1 X19.748 Y145.381 E51.63797
G1 X19.582 Y144.800 E51.65742
G1 X19.325 Y144.271 E51.67635
G1 X19.007 Y143.806 E51.69446
G1 X18.804 Y143.564 E51.70465
G1 X18.412 Y143.168 E51.72258
G1 X17.969 Y142.793 E51.74127
G1 X17.261 Y142.287 E51.76926
G1 X15.761 Y141.378 E51.82569
G1 X15.360 Y141.109 E51.84123
G1 X15.457 Y140.835 E51.85059
G1 X15.675 Y140.854 E51.85763
G1 X16.139 Y140.813 E51.87264
G1 X16.591 Y140.693 E51.88769
G1 X17.015 Y140.495 E51.90274
G1 X17.399 Y140.227 E51.91780
G1 X17.728 Y139.896 E51.93283
G1 X17.995 Y139.515 E51.94780
G1 X18.194 Y139.090 E51.96288
G1 X18.314 Y138.638 E51.97793
G1 X18.355 Y138.174 E51.99294
G1 X18.314 Y137.708 E52.00799
G1 X18.192 Y137.258 E52.02299
G1 X17.996 Y136.835 E52.03800
G1 X17.727 Y136.452 E52.05306
G1 X17.396 Y136.121 E52.06810
G1 X17.013 Y135.854 E52.08313
G1 X16.590 Y135.657 E52.09815
G1 X16.140 Y135.537 E52.11316
G1 X15.669 Y135.496 E52.12835
G1 X15.455 Y135.517 E52.13528
G1 X15.356 Y135.242 E52.14469
G1 X15.757 Y134.973 E52.16023
G1 X16.770 Y134.372 E52.19811
G1 X17.509 Y133.894 E52.22643
G1 X18.190 Y133.376 E52.25399
G1 X18.617 Y132.983 E52.27265
G1 X18.988 Y132.567 E52.29060
G1 X19.178 Y132.309 E52.30089
G1 X19.452 Y131.841 E52.31835
G1 X19.588 Y131.531 E52.32923
G1 X19.748 Y130.969 E52.34805
G1 X19.800 Y130.398 E52.36648
G1 X19.790 Y49.336 E54.97498
G1 X19.681 Y48.756 E54.99396
G1 X19.573 Y48.431 E55.00499
G1 X19.325 Y47.921 E55.02324
G1 X18.992 Y47.435 E55.04221
G1 X18.422 Y46.826 E55.06904
G1 X17.969 Y46.442 E55.08816
G1 X17.261 Y45.936 E55.11615
G1 X15.761 Y45.028 E55.17258
G1 X15.359 Y44.759 E55.18813
G1 X15.456 Y44.484 E55.19749
G1 X15.673 Y44.504 E55.20451
G1 X16.139 Y44.464 E55.21954
G1 X16.591 Y44.343 E55.23461
G1 X17.032 Y44.138 E55.25024
G1 X17.402 Y43.874 E55.26487
G1 X17.728 Y43.546 E55.27977
G1 X17.995 Y43.165 E55.29474
G1 X18.194 Y42.740 E55.30982
G1 X18.314 Y42.288 E55.32488
G1 X18.355 Y41.824 E55.33987
G1 X18.314 Y41.358 E55.35491
G1 X18.193 Y40.908 E55.36990
G1 X17.996 Y40.485 E55.38491
G1 X17.727 Y40.101 E55.40000
G1 X17.396 Y39.772 E55.41504
G1 X17.014 Y39.504 E55.43005
G1 X16.591 Y39.307 E55.44506
G1 X16.139 Y39.186 E55.46011
G1 X15.668 Y39.146 E55.47533
G1 X15.454 Y39.167 E55.48223
G1 X15.356 Y38.892 E55.49164
G1 X15.761 Y38.620 E55.50735
G1 X17.261 Y37.712 E55.56377
G1 X17.968 Y37.206 E55.59174
G1 X18.411 Y36.832 E55.61041
G1 X18.804 Y36.436 E55.62836
G1 X19.007 Y36.193 E55.63854
G1 X19.325 Y35.729 E55.65665
G1 X19.582 Y35.200 E55.67558
G1 X19.748 Y34.618 E55.69504
G1 X19.800 Y34.049 E55.71344
G1 X19.800 Y32.025 E55.77856
G1 X18.800 Y32.025 E55.81074
G1 X18.800 Y5.975 E56.64901
G1 X44.850 Y5.975 E57.48728
G1 X44.850 Y6.975 E57.51946
G1 X102.385 Y6.975 E59.37087
G1 X102.385 Y9.185 E59.44199
G1 X44.850 Y9.182 E61.29340
G1 X44.850 Y32.025 E62.02846
G1 X22.007 Y32.025 E62.76352
G1 X22.007 Y147.975 E66.49466
G1 X44.850 Y147.975 E67.22972
G1 X44.850 Y170.818 E67.96479
G1 X110.800 Y170.818 E70.08699
G1 X110.800 Y147.975 E70.82206
G1 X140.643 Y147.975 E71.78238
G1 X140.643 Y32.025 E75.51353
G1 X110.800 Y32.025 E76.47385
G1 X110.800 Y5.975 E77.31212
G1 X143.850 Y5.975 E78.37564
G1 X143.850 Y32.025 E79.21391
G1 X142.910 Y32.025 E79.24416
G1 E77.24416 F2400.00000
G92 E0
G1 X17.727 Y41.824 F7800.000
G1 E2.00000 F2400.00000
G1 X17.696 Y42.180 E2.01149 F1800.000
G1 X17.604 Y42.526 E2.02302
G1 X17.452 Y42.851 E2.03456
G1 X17.247 Y43.143 E2.04605
G1 X16.996 Y43.396 E2.05751
G1 X16.716 Y43.596 E2.06859
G1 X16.377 Y43.753 E2.08062
G1 X16.031 Y43.846 E2.09216
G1 X15.674 Y43.876 E2.10366
G1 X15.319 Y43.845 E2.11515
G1 X14.973 Y43.752 E2.12668
G1 X14.649 Y43.601 E2.13816
G1 X14.356 Y43.396 E2.14968
G1 X14.104 Y43.142 E2.16119
G1 X13.899 Y42.850 E2.17269
G1 X13.748 Y42.526 E2.18418
G1 X13.655 Y42.180 E2.19572
G1 X13.625 Y41.822 E2.20728
G1 X13.663 Y41.425 E2.22012
G1 X13.780 Y41.039 E2.23308
G1 X13.970 Y40.684 E2.24603
G1 X14.225 Y40.374 E2.25896
G1 X14.535 Y40.119 E2.27189
G1 X14.892 Y39.928 E2.28491
G1 X15.296 Y39.811 E2.29843
G1 X15.672 Y39.774 E2.31061 F1800.000
G1 X16.031 Y39.804 E2.32218
G1 X16.376 Y39.897 E2.33369
G1 X16.700 Y40.048 E2.34520
G1 X16.993 Y40.253 E2.35671
G1 X17.247 Y40.505 E2.36821
G1 X17.452 Y40.799 E2.37975
G1 X17.603 Y41.123 E2.39126
G1 X17.696 Y41.468 E2.40275
G1 X17.722 Y41.764 E2.41233
G1 X18.031 Y42.011 F7800.000
G1 E0.41233 F2400.00000
G92 E0
G1 X15.673 Y136.123 F7800.000
G1 E2.00000 F2400.00000
G1 X16.031 Y136.154 E2.01156 F1800.000
G1 X16.376 Y136.247 E2.02306
G1 X16.700 Y136.398 E2.03457
G1 X16.994 Y136.602 E2.04608
G1 X17.247 Y136.855 E2.05760
G1 X17.452 Y137.148 E2.06912
G1 X17.603 Y137.472 E2.08061
G1 X17.696 Y137.818 E2.09211
G1 X17.727 Y138.174 E2.10363
G1 X17.696 Y138.530 E2.11514
G1 X17.604 Y138.876 E2.12665
G1 X17.452 Y139.201 E2.13819
G1 X17.247 Y139.493 E2.14968
G1 X16.995 Y139.747 E2.16118
G1 X16.702 Y139.952 E2.17271
G1 X16.377 Y140.103 E2.18423
G1 X16.031 Y140.196 E2.19576
G1 X15.675 Y140.227 E2.20726
G1 X15.319 Y140.195 E2.21876
G1 X14.973 Y140.103 E2.23029
G1 X14.649 Y139.951 E2.24179
G1 X14.356 Y139.746 E2.25331
G1 X14.104 Y139.493 E2.26480
