; generated by Slic3r 1.2.9 on 2019-01-06 at 16:18:02

; external perimeters extrusion width = 0.40mm
; perimeters extrusion width = 0.48mm
; infill extrusion width = 0.48mm
; solid infill extrusion width = 0.48mm
; top infill extrusion width = 0.48mm

M107
M190 S65 ; set bed temperature
M104 S200 ; set temperature
G28 ; home all axes
G1 Z5 F5000 ; lift nozzle

M109 S200 ; wait for temperature to be reached
G21 ; set units to millimeters
G90 ; use absolute coordinates
M82 ; use absolute distances for extrusion
G92 E0
G1 Z0.350 F7800.000
G1 E-2.00000 F2400.00000
G92 E0
G1 X154.077 Y136.856 F7800.000
G1 E2.00000 F2400.00000
G1 X154.330 Y136.603 E2.01152 F1800.000
G1 X154.624 Y136.398 E2.02303
G1 X154.950 Y136.246 E2.03460
G1 X155.313 Y136.153 E2.04667
G1 X155.650 Y136.123 E2.05757 F1800.000
G1 X156.006 Y136.155 E2.06908
G1 X156.352 Y136.248 E2.08059
G1 X156.676 Y136.399 E2.09209
G1 X156.969 Y136.604 E2.10360
G1 X157.221 Y136.857 E2.11511
G1 X157.426 Y137.150 E2.12662
G1 X157.577 Y137.474 E2.13813
G1 X157.670 Y137.820 E2.14964
G1 X157.701 Y138.178 E2.16121
G1 X157.661 Y138.576 E2.17407
G1 X157.545 Y138.961 E2.18701
G1 X157.355 Y139.315 E2.19994
G1 X157.100 Y139.626 E2.21288
G1 X156.789 Y139.881 E2.22582
G1 X156.435 Y140.070 E2.23875
G1 X156.050 Y140.187 E2.25169
G1 X155.652 Y140.227 E2.26455
G1 X155.294 Y140.196 E2.27613
G1 X154.948 Y140.103 E2.28764
G1 X154.624 Y139.952 E2.29914
G1 X154.331 Y139.747 E2.31065
G1 X154.078 Y139.495 E2.32215
G1 X153.873 Y139.202 E2.33367
G1 X153.722 Y138.878 E2.34517
G1 X153.629 Y138.532 E2.35668
G1 X153.598 Y138.176 E2.36819
G1 X153.629 Y137.820 E2.37970
G1 X153.716 Y137.492 E2.39061
G1 X153.871 Y137.151 E2.40267
G1 X154.043 Y136.906 E2.41231
G1 X153.965 Y136.517 F7800.000
G1 E0.41231 F2400.00000
G92 E0
G1 X155.653 Y43.876 F7800.000
G1 E2.00000 F2400.00000
G1 X155.294 Y43.846 E2.01158 F1800.000
G1 X154.948 Y43.753 E2.02310
G1 X154.624 Y43.602 E2.03460
G1 X154.331 Y43.397 E2.04611
G1 X154.078 Y43.145 E2.05761
G1 X153.873 Y42.852 E2.06913
G1 X153.722 Y42.527 E2.08065
G1 X153.629 Y42.182 E2.09214
G1 X153.598 Y41.826 E2.10365
G1 X153.629 Y41.470 E2.11515
G1 X153.721 Y41.124 E2.12667
G1 X153.872 Y40.799 E2.13820
G1 X154.077 Y40.506 E2.14971
G1 X154.330 Y40.253 E2.16124
G1 X154.624 Y40.048 E2.17276
G1 X154.950 Y39.896 E2.18432
G1 X155.313 Y39.802 E2.19640
G1 X155.651 Y39.774 E2.20730 F1800.000
G1 X156.007 Y39.805 E2.21880
G1 X156.352 Y39.898 E2.23030
G1 X156.676 Y40.049 E2.24180
G1 X156.969 Y40.254 E2.25332
G1 X157.222 Y40.507 E2.26483
G1 X157.426 Y40.800 E2.27634
G1 X157.577 Y41.124 E2.28783
G1 X157.670 Y41.470 E2.29936
G1 X157.701 Y41.828 E2.31092
G1 X157.661 Y42.226 E2.32378
G1 X157.545 Y42.611 E2.33672
G1 X157.355 Y42.966 E2.34967
G1 X157.100 Y43.276 E2.36258
G1 X156.790 Y43.531 E2.37553
G1 X156.434 Y43.721 E2.38849
G1 X156.050 Y43.837 E2.40141
G1 X155.712 Y43.871 E2.41232
G1 X155.466 Y44.184 F7800.000
G1 E0.41232 F2400.00000
G92 E0
G1 X150.900 Y31.400 F7800.000
G1 E2.00000 F2400.00000
G1 X150.900 Y34.078 E2.08617 F1800.000
G1 X150.961 Y34.734 E2.10737
G1 X151.157 Y35.422 E2.13040
G1 X151.457 Y36.044 E2.15261
G1 X151.845 Y36.608 E2.17465
G1 X152.472 Y37.277 E2.20414
G1 X152.972 Y37.701 E2.22525
G1 X153.719 Y38.236 E2.25481
G1 X154.517 Y38.719 E2.28482
G1 X153.997 Y38.961 E2.30327
G1 X153.524 Y39.292 E2.32186
G1 X153.116 Y39.700 E2.34043
G1 X152.786 Y40.172 E2.35898
G1 X152.542 Y40.696 E2.37756
G1 X152.393 Y41.253 E2.39612
G1 X152.343 Y41.827 E2.41465
G1 X152.394 Y42.401 E2.43320
G1 X152.543 Y42.957 E2.45171
G1 X152.786 Y43.479 E2.47025
G1 X153.118 Y43.952 E2.48886
G1 X153.526 Y44.359 E2.50739
G1 X153.997 Y44.689 E2.52592
G1 X154.498 Y44.922 E2.54367
G1 X153.457 Y45.593 E2.58351
G1 X152.732 Y46.145 E2.61283
G1 X152.261 Y46.578 E2.63342
G1 X151.852 Y47.038 E2.65322
G1 X151.624 Y47.346 E2.66555
G1 X151.296 Y47.908 E2.68652
G1 X151.057 Y48.529 E2.70792
G1 X150.958 Y48.952 E2.72189
G1 X150.900 Y49.572 E2.74194
G1 X150.910 Y130.722 E5.35324
G1 X151.037 Y131.401 E5.37550
G1 X151.173 Y131.806 E5.38922
G1 X151.457 Y132.394 E5.41024
G1 X151.820 Y132.923 E5.43088
G1 X152.059 Y133.207 E5.44283
G1 X152.488 Y133.641 E5.46247
G1 X152.972 Y134.051 E5.48288
G1 X153.719 Y134.585 E5.51243
G1 X154.517 Y135.069 E5.54246
G1 X153.997 Y135.311 E5.56093
G1 X153.524 Y135.642 E5.57949
G1 X153.116 Y136.050 E5.59806
G1 X152.781 Y136.529 E5.61686
G1 X152.535 Y137.070 E5.63597
G1 X152.393 Y137.602 E5.65373
G1 X152.343 Y138.177 E5.67228
G1 X152.394 Y138.751 E5.69083
G1 X152.543 Y139.307 E5.70936
G1 X152.787 Y139.830 E5.72791
G1 X153.118 Y140.302 E5.74647
G1 X153.526 Y140.709 E5.76501
G1 X153.998 Y141.039 E5.78355
G1 X154.519 Y141.282 E5.80205
G1 X153.719 Y141.767 E5.83214
G1 X152.973 Y142.300 E5.86167
G1 X152.489 Y142.710 E5.88208
G1 X152.059 Y143.143 E5.90171
G1 X151.821 Y143.428 E5.91366
G1 X151.457 Y143.956 E5.93429
G1 X151.157 Y144.577 E5.95650
G1 X150.961 Y145.265 E5.97953
G1 X150.900 Y145.922 E6.00076
G1 X150.900 Y148.600 E6.08691
G1 X151.900 Y148.600 E6.11909
G1 X151.900 Y173.400 E6.91714
G1 X120.100 Y173.400 E7.94045
G1 X120.100 Y148.600 E8.73850
G1 X149.943 Y148.600 E9.69882
G1 X149.943 Y31.400 E13.47019
G1 X120.100 Y31.400 E14.43051
G1 X120.100 Y8.557 E15.16557
G1 X52.900 Y8.557 E17.32798
G1 X52.900 Y31.400 E18.06304
G1 X30.057 Y31.400 E18.79810
G1 X30.057 Y148.600 E22.56946
G1 X52.900 Y148.600 E23.30452
G1 X52.900 Y171.443 E24.03959
G1 X110.435 Y171.440 E25.89100
G1 X110.435 Y172.400 E25.92191
G1 X52.900 Y172.400 E27.77332
G1 X52.900 Y173.400 E27.80550
G1 X28.100 Y173.400 E28.60355
G1 X28.100 Y148.600 E29.40160
G1 X29.100 Y148.600 E29.43378
G1 X29.100 Y145.923 E29.51992
G1 X29.039 Y145.266 E29.54113
G1 X28.843 Y144.576 E29.56422
G1 X28.542 Y143.956 E29.58641
G1 X28.181 Y143.428 E29.60700
G1 X27.941 Y143.142 E29.61900
G1 X27.511 Y142.709 E29.63864
G1 X27.028 Y142.299 E29.65903
G1 X26.280 Y141.765 E29.68861
G1 X25.482 Y141.281 E29.71862
G1 X26.003 Y141.039 E29.73711
G1 X26.477 Y140.707 E29.75572
G1 X26.884 Y140.299 E29.77427
G1 X27.213 Y139.829 E29.79272
G1 X27.458 Y139.305 E29.81134
G1 X27.606 Y138.747 E29.82993
G1 X27.655 Y138.201 E29.84756
G1 X27.626 Y137.671 E29.86464
G1 X27.457 Y137.043 E29.88556
G1 X27.214 Y136.521 E29.90407
G1 X26.882 Y136.048 E29.92267
G1 X26.474 Y135.640 E29.94125
G1 X26.001 Y135.311 E29.95978
G1 X25.503 Y135.079 E29.97748
G1 X26.543 Y134.406 E30.01735
G1 X27.267 Y133.855 E30.04661
G1 X27.738 Y133.422 E30.06721
G1 X28.150 Y132.961 E30.08711
G1 X28.375 Y132.653 E30.09939
G1 X28.685 Y132.125 E30.11908
G1 X28.852 Y131.743 E30.13250
G1 X29.039 Y131.084 E30.15456
G1 X29.100 Y130.427 E30.17578
G1 X29.090 Y49.278 E32.78707
G1 X28.962 Y48.600 E32.80927
G1 X28.828 Y48.195 E32.82300
G1 X28.542 Y47.606 E32.84407
G1 X28.156 Y47.042 E32.86606
G1 X27.528 Y46.373 E32.89558
G1 X27.028 Y45.949 E32.91669
G1 X26.280 Y45.414 E32.94627
G1 X25.483 Y44.931 E32.97627
G1 X26.022 Y44.680 E32.99542
G1 X26.483 Y44.352 E33.01361
G1 X26.884 Y43.948 E33.03194
G1 X27.213 Y43.479 E33.05039
G1 X27.459 Y42.954 E33.06902
G1 X27.606 Y42.396 E33.08761
G1 X27.657 Y41.824 E33.10609
G1 X27.606 Y41.249 E33.12467
G1 X27.457 Y40.694 E33.14316
G1 X27.214 Y40.172 E33.16167
G1 X26.882 Y39.697 E33.18032
G1 X26.473 Y39.290 E33.19888
G1 X26.002 Y38.961 E33.21740
G1 X25.480 Y38.718 E33.23590
G1 X26.280 Y38.234 E33.26598
G1 X27.027 Y37.700 E33.29553
G1 X27.510 Y37.291 E33.31590
G1 X27.941 Y36.857 E33.33556
G1 X28.180 Y36.572 E33.34757
G1 X28.542 Y36.044 E33.36815
G1 X28.843 Y35.423 E33.39035
G1 X29.039 Y34.733 E33.41344
G1 X29.100 Y34.077 E33.43463
G1 X29.100 Y31.400 E33.52078
G1 X28.100 Y31.400 E33.55296
G1 X28.100 Y6.600 E34.35101
G1 X52.900 Y6.600 E35.14907
G1 X52.900 Y7.600 E35.18125
G1 X120.100 Y7.600 E37.34366
G1 X120.100 Y6.600 E37.37584
G1 X151.900 Y6.600 E38.39914
G1 X151.900 Y31.400 E39.19719
G1 X150.960 Y31.400 E39.22744
G1 X151.525 Y32.025 F7800.000
G1 X151.525 Y34.049 E39.29257 F1800.000
G1 X151.578 Y34.619 E39.31099
G1 X151.743 Y35.199 E39.33040
G1 X151.999 Y35.729 E39.34934
G1 X152.333 Y36.216 E39.36834
G1 X152.903 Y36.824 E39.39514
G1 X153.357 Y37.208 E39.41427
G1 X154.063 Y37.713 E39.44224
G1 X155.564 Y38.622 E39.49869
G1 X155.965 Y38.891 E39.51424
G1 X155.869 Y39.166 E39.52360
G1 X155.652 Y39.146 E39.53060
G1 X155.208 Y39.184 E39.54495
G1 X154.738 Y39.305 E39.56056
G1 X154.311 Y39.504 E39.57572
G1 X153.927 Y39.772 E39.59078
G1 X153.597 Y40.103 E39.60583
G1 X153.329 Y40.486 E39.62086
G1 X153.131 Y40.910 E39.63591
G1 X153.011 Y41.362 E39.65096
G1 X152.970 Y41.826 E39.66597
G1 X153.011 Y42.292 E39.68100
G1 X153.132 Y42.742 E39.69600
G1 X153.330 Y43.165 E39.71103
G1 X153.598 Y43.549 E39.72610
G1 X153.929 Y43.878 E39.74111
G1 X154.311 Y44.146 E39.75613
G1 X154.734 Y44.343 E39.77114
G1 X155.186 Y44.464 E39.78620
G1 X155.657 Y44.504 E39.80143
G1 X155.870 Y44.483 E39.80831
G1 X155.969 Y44.758 E39.81773
G1 X155.567 Y45.027 E39.83330
G1 X154.556 Y45.628 E39.87115
G1 X153.817 Y46.105 E39.89946
G1 X153.134 Y46.625 E39.92706
G1 X152.707 Y47.017 E39.94572
G1 X152.338 Y47.432 E39.96360
G1 X152.147 Y47.690 E39.97392
G1 X151.861 Y48.180 E39.99217
G1 X151.656 Y48.714 E40.01059
G1 X151.576 Y49.053 E40.02180
G1 X151.525 Y49.601 E40.03951
G1 X151.535 Y130.664 E42.64802
G1 X151.644 Y131.244 E42.66702
G1 X151.753 Y131.570 E42.67807
G1 X151.999 Y132.079 E42.69628
G1 X152.318 Y132.544 E42.71443
G1 X152.521 Y132.786 E42.72458
G1 X152.913 Y133.182 E42.74251
G1 X153.357 Y133.557 E42.76122
G1 X154.063 Y134.063 E42.78918
G1 X155.564 Y134.973 E42.84563
G1 X155.965 Y135.241 E42.86117
G1 X155.868 Y135.515 E42.87053
G1 X155.651 Y135.496 E42.87756
G1 X155.207 Y135.535 E42.89188
G1 X154.738 Y135.655 E42.90747
G1 X154.310 Y135.855 E42.92266
G1 X153.927 Y136.123 E42.93770
G1 X153.597 Y136.453 E42.95273
G1 X153.326 Y136.840 E42.96792
G1 X153.126 Y137.281 E42.98351
G1 X153.011 Y137.711 E42.99784
G1 X152.970 Y138.177 E43.01287
G1 X153.011 Y138.642 E43.02790
G1 X153.132 Y139.092 E43.04292
G1 X153.330 Y139.516 E43.05795
G1 X153.598 Y139.898 E43.07299
G1 X153.928 Y140.228 E43.08801
G1 X154.311 Y140.496 E43.10303
G1 X154.734 Y140.693 E43.11805
G1 X155.185 Y140.813 E43.13308
G1 X155.656 Y140.854 E43.14829
G1 X155.870 Y140.833 E43.15520
G1 X155.969 Y141.109 E43.16462
G1 X155.564 Y141.379 E43.18030
G1 X154.064 Y142.289 E43.23674
G1 X153.357 Y142.794 E43.26469
G1 X152.913 Y143.169 E43.28339
G1 X152.521 Y143.565 E43.30131
G1 X152.318 Y143.806 E43.31146
G1 X151.999 Y144.271 E43.32960
G1 X151.743 Y144.801 E43.34854
G1 X151.578 Y145.381 E43.36795
G1 X151.525 Y145.951 E43.38638
G1 X151.525 Y147.975 E43.45150
G1 X152.525 Y147.975 E43.48368
G1 X152.525 Y174.025 E44.32195
G1 X119.475 Y174.025 E45.38547
G1 X119.475 Y147.975 E46.22374
G1 X149.318 Y147.975 E47.18407
G1 X149.318 Y32.025 E50.91521
G1 X119.475 Y32.025 E51.87553
G1 X119.475 Y9.182 E52.61059
G1 X53.525 Y9.182 E54.73279
G1 X53.525 Y32.025 E55.46785
G1 X30.682 Y32.025 E56.20291
G1 X30.682 Y147.975 E59.93405
G1 X53.525 Y147.975 E60.66911
G1 X53.525 Y170.818 E61.40418
G1 X111.060 Y170.815 E63.25559
G1 X111.060 Y173.025 E63.32671
G1 X53.525 Y173.025 E65.17812
G1 X53.525 Y174.025 E65.21030
G1 X27.475 Y174.025 E66.04857
G1 X27.475 Y147.975 E66.88684
G1 X28.475 Y147.975 E66.91902
G1 X28.475 Y145.952 E66.98413
G1 X28.422 Y145.381 E67.00255
G1 X28.257 Y144.800 E67.02200
G1 X28.000 Y144.271 E67.04094
G1 X27.682 Y143.806 E67.05905
G1 X27.479 Y143.564 E67.06923
G1 X27.087 Y143.168 E67.08716
G1 X26.643 Y142.793 E67.10586
G1 X25.936 Y142.287 E67.13384
G1 X24.436 Y141.378 E67.19028
G1 X24.035 Y141.109 E67.20582
G1 X24.132 Y140.835 E67.21518
G1 X24.349 Y140.854 E67.22221
G1 X24.814 Y140.813 E67.23723
G1 X25.266 Y140.693 E67.25227
G1 X25.690 Y140.495 E67.26732
G1 X26.074 Y140.227 E67.28239
G1 X26.403 Y139.896 E67.29742
G1 X26.670 Y139.515 E67.31239
G1 X26.869 Y139.090 E67.32747
G1 X26.989 Y138.638 E67.34252
G1 X27.028 Y138.190 E67.35700
G1 X27.005 Y137.770 E67.37054
G1 X26.867 Y137.258 E67.38761
G1 X26.671 Y136.835 E67.40262
G1 X26.402 Y136.452 E67.41768
G1 X26.071 Y136.121 E67.43272
G1 X25.688 Y135.854 E67.44774
G1 X25.265 Y135.657 E67.46277
G1 X24.814 Y135.537 E67.47778
G1 X24.344 Y135.496 E67.49297
G1 X24.130 Y135.517 E67.49990
G1 X24.031 Y135.242 E67.50931
G1 X24.432 Y134.973 E67.52485
G1 X25.445 Y134.372 E67.56273
G1 X26.184 Y133.894 E67.59104
G1 X26.865 Y133.376 E67.61861
G1 X27.292 Y132.983 E67.63727
G1 X27.663 Y132.567 E67.65521
G1 X27.853 Y132.309 E67.66550
G1 X28.127 Y131.841 E67.68297
G1 X28.263 Y131.531 E67.69384
G1 X28.422 Y130.969 E67.71267
G1 X28.475 Y130.398 E67.73110
G1 X28.465 Y49.336 E70.33959
G1 X28.356 Y48.756 E70.35857
G1 X28.248 Y48.431 E70.36961
G1 X28.000 Y47.921 E70.38786
G1 X27.667 Y47.435 E70.40682
G1 X27.097 Y46.826 E70.43365
G1 X26.643 Y46.442 E70.45277
G1 X25.936 Y45.936 E70.48077
G1 X24.436 Y45.028 E70.53719
G1 X24.034 Y44.759 E70.55275
G1 X24.131 Y44.484 E70.56211
G1 X24.348 Y44.504 E70.56912
G1 X24.814 Y44.464 E70.58415
G1 X25.266 Y44.343 E70.59923
G1 X25.707 Y44.138 E70.61486
G1 X26.077 Y43.874 E70.62949
G1 X26.403 Y43.546 E70.64438
G1 X26.670 Y43.165 E70.65935
G1 X26.869 Y42.740 E70.67444
G1 X26.989 Y42.288 E70.68950
G1 X27.030 Y41.824 E70.70448
G1 X26.989 Y41.358 E70.71953
G1 X26.867 Y40.908 E70.73452
G1 X26.671 Y40.485 E70.74953
G1 X26.402 Y40.101 E70.76462
G1 X26.071 Y39.772 E70.77965
G1 X25.688 Y39.504 E70.79467
G1 X25.265 Y39.307 E70.80968
G1 X24.814 Y39.186 E70.82472
G1 X24.343 Y39.146 E70.83994
G1 X24.129 Y39.167 E70.84684
G1 X24.031 Y38.892 E70.85626
G1 X24.436 Y38.620 E70.87196
G1 X25.936 Y37.712 E70.92839
G1 X26.643 Y37.206 E70.95636
G1 X27.086 Y36.832 E70.97502
G1 X27.479 Y36.436 E70.99297
G1 X27.682 Y36.193 E71.00316
G1 X28.000 Y35.729 E71.02126
G1 X28.257 Y35.200 E71.04020
G1 X28.422 Y34.618 E71.05965
G1 X28.475 Y34.049 E71.07806
G1 X28.475 Y32.025 E71.14318
G1 X27.475 Y32.025 E71.17535
G1 X27.475 Y5.975 E72.01362
G1 X53.525 Y5.975 E72.85189
G1 X53.525 Y6.975 E72.88407
G1 X119.475 Y6.975 E75.00627
G1 X119.475 Y5.975 E75.03845
G1 X152.525 Y5.975 E76.10197
G1 X152.525 Y32.025 E76.94024
G1 X151.585 Y32.025 E76.97049
G1 E74.97049 F2400.00000
G92 E0
G1 X26.402 Y41.824 F7800.000
G1 E2.00000 F2400.00000
G1 X26.371 Y42.180 E2.01149 F1800.000
G1 X26.279 Y42.526 E2.02302
G1 X26.127 Y42.851 E2.03456
G1 X25.922 Y43.143 E2.04605
G1 X25.671 Y43.396 E2.05751
G1 X25.391 Y43.596 E2.06859
G1 X25.052 Y43.753 E2.08062
G1 X24.706 Y43.846 E2.09216
G1 X24.349 Y43.876 E2.10366
G1 X23.994 Y43.845 E2.11515
G1 X23.648 Y43.752 E2.12668
G1 X23.324 Y43.601 E2.13816
G1 X23.031 Y43.396 E2.14968
G1 X22.778 Y43.142 E2.16119
G1 X22.574 Y42.850 E2.17269
G1 X22.423 Y42.526 E2.18418
G1 X22.330 Y42.180 E2.19572
G1 X22.299 Y41.822 E2.20728
G1 X22.338 Y41.425 E2.22012
G1 X22.455 Y41.039 E2.23308
G1 X22.645 Y40.684 E2.24603
G1 X22.900 Y40.374 E2.25896
G1 X23.210 Y40.119 E2.27189
G1 X23.567 Y39.928 E2.28491
G1 X23.971 Y39.811 E2.29843
G1 X24.347 Y39.774 E2.31061 F1800.000
G1 X24.706 Y39.804 E2.32218
G1 X25.051 Y39.897 E2.33369
G1 X25.375 Y40.048 E2.34520
G1 X25.668 Y40.253 E2.35671
G1 X25.922 Y40.505 E2.36821
G1 X26.127 Y40.799 E2.37975
G1 X26.278 Y41.123 E2.39126
G1 X26.371 Y41.468 E2.40275
G1 X26.397 Y41.764 E2.41233
G1 X26.706 Y42.011 F7800.000
G1 E0.41233 F2400.00000
G92 E0
G1 X24.348 Y136.123 F7800.000
G1 E2.00000 F2400.00000
G1 X24.706 Y136.154 E2.01156 F1800.000
G1 X25.051 Y136.247 E2.02306
G1 X25.375 Y136.398 E2.03457
G1 X25.668 Y136.602 E2.04608
G1 X25.922 Y136.855 E2.05760
G1 X26.127 Y137.148 E2.06912
G1 X26.278 Y137.472 E2.08061
G1 X26.385 Y137.869 E2.09384
G1 X26.402 Y138.180 E2.10385
G1 X26.371 Y138.530 E2.11516
G1 X26.279 Y138.876 E2.12668
G1 X26.127 Y139.201 E2.13822
G1 X25.922 Y139.493 E2.14971
G1 X25.670 Y139.747 E2.16121
G1 X25.376 Y139.952 E2.17274
G1 X25.052 Y140.103 E2.18426
G1 X24.706 Y140.196 E2.19579
G1 X24.350 Y140.227 E2.20729
G1 X23.994 Y140.195 E2.21879
G1 X23.648 Y140.103 E2.23032
G1 X23.324 Y139.951 E2.24182
G1 X23.031 Y139.746 E2.25333
G1 X22.779 Y139.493 E2.26483
G1 X22.574 Y139.200 E2.27634
G1 X22.423 Y138.876 E2.28784
G1 X22.330 Y138.530 E2.29936
G1 X22.299 Y138.172 E2.31092
G1 X22.338 Y137.774 E2.32378
G1 X22.455 Y137.389 E2.33673
G1 X22.645 Y137.035 E2.34967
